!!!COM: Beethoven
!!!OTL: 24 Variationen uber Venni Amore von V. Righini
!!!Variation: Theme a
**function	**harm	**kern	**kern
*	*	*clefF4	*clefG2
*	*	*k[f#c#]	*k[f#c#]
*M2/4	*M2/4	*M2/4	*M2/4
*D:	*D:	*D:	*D:
=1	=1	=1	=1
4T	4I	8D	8a 8ff#
.	.	8r	8r
4T	4V7	8AA	8g 8ee
.	.	8r	8r
=2	=2	=2	=2
2T	2vi	4BB	4f# 4dd
.	.	4r	8.r
.	.	.	16cc#
=3	=3	=3	=3
2T	2IV	8GG	8g 8b
.	.	8r	8r
.	.	8BB	8g 8b
.	.	8r	8r
=4	=4	=4	=4
2T	2I	8D	8f# 8a
.	.	8r	8r
.	.	4r	4r
=5	=5	=5	=5
2T	2I	8D 8A	8d 8f#
.	.	8r	8r
.	.	(4D [4A	(4d 4f#
=6	=6	=6	=6
2T	2V7b	8C#) 8A]	8e) 8g
.	.	8r	8r
.	.	(4C# [4A	(4e 4g
=7	=7	=7	=7
2T	2I	8D) 8A]	8d) 8f#
.	.	8r	8r
.	.	4D 4A	4d 4f#
=8	=8	=8	=8
2D	2V	4AA 4A	4c# 4e
.	.	4r	4r
*-	*-	*-	*-
!!!COM: Beethoven
!!!OTL: 24 Variationen uber Venni Amore von V. Righini
!!!Variation: Theme b
**function	**harm	**kern	**kern
*	*	*clefF4	*clefG2
*	*	*k[f#c#]	*k[f#c#]
*M2/4	*M2/4	*M2/4	*M2/4
*D:	*D:	*D:	*D:
=9	=9	=9	=9
*	*	*	*^
2D	2V7	2AA 2G	2c#	8e
.	.	.	.	8r
.	.	.	.	8a
.	.	.	.	8r
=10	=10	=10	=10	=10
2D	2Ic	2AA 2F#	2d	8f#
.	.	.	.	8r
.	.	.	.	8dd
.	.	.	.	8r
*	*	*	*v	*v
=11	=11	=11	=11
2D	2V7	2AA 2C# 2G	8ee
.	.	.	8r
.	.	.	8a
.	.	.	8r
=12	=12	=12	=12
2D	2Ic	2AA 2D 2F#	8dd
.	.	.	8r
.	.	.	8d
.	.	.	8r
=13	=13	=13	=13
*	*	*	*^
2D	2V7	2AA 2G	2c#	8e
.	.	.	.	8r
.	.	.	.	8a
.	.	.	.	8r
=14	=14	=14	=14	=14
2D	2Ic	2AA 2F#	2d	8f#
.	.	.	.	8r
.	.	.	.	8dd
.	.	.	.	8r
=15	=15	=15	=15	=15
*	*	*^	*	*
*	*	*	*	*^	*
2D	2V7	2AA	4A	4d	2e	4a
.	.	.	4G	4c#	.	16g#LL
.	.	.	.	.	.	16a
.	.	.	.	.	.	16b
.	.	.	.	.	.	16aJJ
*	*	*	*	*v	*v	*
*	*	*	*	*v	*v
=16	=16	=16	=16	=16
2T	2I	4D	4F#	4d
*	*	*v	*v	*
.	.	4r	4r
*-	*-	*-	*-
!!!COM: Beethoven
!!!OTL: 24 Variationen uber Venni Amore von V. Righini
!!!Variation: Variation 1 a
**function	**harm	**kern	**kern
*	*	*clefF4	*clefF4
*	*	*k[f#c#]	*k[f#c#]
*M2/4	*M2/4	*M2/4	*M2/4
*D:	*D:	*D:	*D:
=17	=17	=17	=17
*	*	*^	*^
4T	4I	[2D	4D 4F#	4a	(4ff#
4T	4V7	.	4E 4G	4g	8cc#L
.	.	.	.	.	8eeJ
=18	=18	=18	=18	=18	=18
4T	4I	2D]	4F# 4A	4a	4dd
4T	4I+7	.	4F# 4A#	[4d	8a#L
.	.	.	.	.	8cc#J
=19	=19	=19	=19	=19	=19
4T	4IVc	[2D	4G 4B	4d]	4b
4T	4Cto7	.	4E# 4G#	[4d 4g#	8ddL
.	.	.	.	.	8bJ
=20	=20	=20	=20	=20	=20
2T	2I	8D]	8F# 8A	8d]	8bL
.	.	8r	8r	8r	8aJ
.	.	4r	4r	4r	8f#L
.	.	.	.	.	8dJ)
*	*	*v	*v	*	*
=21	=21	=21	=21	=21
4T	4I	8r	4.F# 4.A	4A
.	.	(8C#	.	.
4T	4IVb	8DL	.	8f#
.	.	8BBJ)	8GJ)	8d
=22	=22	=22	=22	=22
*	*	*^	*	*
2T	2V7	(8AAL	4.E	4A 4c#	(4g
.	.	8BBJ	.	.	.
.	.	8AAL	.	4e	8eL
.	.	8GGJ	8C#	.	[8aJ
=23	=23	=23	=23	=23	=23
8T	8Ib	8FF#L	8D	8dL	8aL]
8T	8viiob	8EEJ	8r	8gJ	8cc#J
8T	8I	8DDL	4r	8f#L	8ddL)
8T	8Ib	8FF#J	.	[8dJ	[8f#J
=24	=24	=24	=24	=24	=24
2D	2V7	2AA	4r	4d]	8f#L]
.	.	.	.	.	8gJ
.	.	.	8r	4c#	4e
.	.	.	8A	.	.
*	*	*v	*v	*	*
*	*	*	*v	*v
*-	*-	*-	*-
!!!COM: Beethoven
!!!OTL: 24 Variationen uber Venni Amore von V. Righini
!!!Variation: Variation 1 b
**function	**harm	**kern	**kern
*	*	*clefF4	*clefF4
*	*	*k[f#c#]	*k[f#c#]
*M2/4	*M2/4	*M2/4	*M2/4
*D:	*D:	*D:	*D:
=25	=25	=25	=25
*	*	*^	*^
2D	2V7	2AA	4.G	4c#	8eL
.	.	.	.	.	8b^J
.	.	.	.	4g	[4a
.	.	.	8C#	.	.
=26	=26	=26	=26	=26	=26
2D	2Ic	2AA	4.D	4.f#	8aL]
.	.	.	.	.	8ee^J
.	.	.	.	.	[4dd
.	.	.	8F#	8a	.
=27	=27	=27	=27	=27	=27
2D	2V7	8AA	8E	8g	(8ddL]
.	.	8r	8r	8r	8cc#J)
.	.	[4AA	[4G	[4c# 4e	(8bL
.	.	.	.	.	8aJ)
=28	=28	=28	=28	=28	=28
2D	2Ic	2AA]	(16GLL]	(16c#LL]	8a
.	.	.	16F#	16d	.
.	.	.	16E	16e	8r
.	.	.	16DJJ	16f#JJ	.
.	.	.	16C#LL	16gLL	4r
.	.	.	16D	16f#	.
.	.	.	16E	16e	.
.	.	.	16F#JJ)	16dJJ)	.
=29	=29	=29	=29	=29	=29
2D	2V7	2AA	4.G	4.c#	8eL
.	.	.	.	.	8b^J
.	.	.	.	.	[4a
.	.	.	8G	8c#	.
=30	=30	=30	=30	=30	=30
2D	2Ic	2AA	4.F#	4.d	8aL]
.	.	.	.	.	8ee^J
.	.	.	.	.	[4dd
.	.	.	8D	8f#	.
*	*	*v	*v	*	*
=31	=31	=31	=31	=31
2D	2V7	8AA 8E	8g	8ddL]
.	.	8r	8r	8cc#J
.	.	8AA 8G	8c# 8e	8bL
.	.	8r	8r	8aJ
=32	=32	=32	=32	=32
2T	2I	8D 8F#	8d	8a
*	*	*	*v	*v
.	.	8r	8r
.	.	4r	4r
*-	*-	*-	*-
!!!COM: Beethoven
!!!OTL: 24 Variationen uber Venni Amore von V. Righini
!!!Variation: Variation 2 a
**function	**harm	**kern	**kern
*	*	*clefF4	*clefG2
*	*	*k[f#c#]	*k[f#c#]
*M2/4	*M2/4	*M2/4	*M2/4
*D:	*D:	*D:	*D:
=33	=33	=33	=33
4T	4I	8r	8ff#'L
.	.	8D 8F# 8A 8d	(32ff#LK
.	.	.	16aa'JJ)
.	.	.	32r
4T	4V7d	8r	8ee'L
.	.	8G 8A 8c#	(32eeLK
.	.	.	16aa'JJ)
.	.	.	32r
=34	=34	=34	=34
4T	4Ib	8r	8dd'L
.	.	8F# 8A 8d	(32ddLK
.	.	.	16ddd'JJ)
.	.	.	32r
4T	4V7b/IV	8r	8cc'L
.	.	8F# 8A 8c 8d	(32ccLK
.	.	.	16ccc'JJ)
.	.	.	32r
=35	=35	=35	=35
4T	4IV	8r	8b'L
.	.	8G 8B 8d	(32bLK
.	.	.	16bb'JJ)
.	.	.	32r
4T	4V7d	8r	8cc#'L
.	.	8G 8A 8c# 8e	(32cc#LK
.	.	.	16ccc#'JJ)
.	.	.	32r
=36	=36	=36	=36
2T	2Ib	8r	8dd'L
.	.	8F# 8A 8d 8f#	(32ddLK
.	.	.	16ddd'JJ)
.	.	.	32r
.	.	4r	8a'L
.	.	.	(32aLK
.	.	.	16aa'JJ)
.	.	.	32r
=37	=37	=37	=37
2T	2V7/ii	8r	8f#'L
.	.	8D# 8F# 8A 8B	(32f#LK
.	.	.	16ff#'JJ)
.	.	.	32r
.	.	8r	8ff#'L
.	.	8BB 8D# 8F# 8A	(32ff#LK
.	.	.	16bb'JJ)
.	.	.	32r
=38	=38	=38	=38
4T	4ii	8r	8e'L
.	.	8E 8G	(32eLK
.	.	.	16ee'JJ)
.	.	.	32r
4T	4V7	8r	8ee'L
.	.	8AA 8C# 8E 8G	(32eeLK
.	.	.	16aa'JJ)
.	.	.	32r
=39	=39	=39	=39
4T	4I	8r	8d'L
.	.	8D 8F#	(32dLK
.	.	.	16dd'JJ)
.	.	.	32r
4T	4V7c/V	8r	8dd'L
.	.	8BB 8D 8E 8G#	(32ddLK
.	.	.	16ddd'JJ)
.	.	.	32r
=40	=40	=40	=40
2D	2V	8r	8a'L
.	.	8AA 8C# 8E 8A	(32aLK
.	.	.	16aa'JJ)
.	.	.	32r
.	.	8AAA	4r
.	.	8r	.
*-	*-	*-	*-
!!!COM: Beethoven
!!!OTL: 24 Variationen uber Venni Amore von V. Righini
!!!Variation: Variation 2 b
**function	**harm	**kern	**kern
*	*	*clefF4	*clefF4
*	*	*k[f#c#]	*k[f#c#]
*M2/4	*M2/4	*M2/4	*M2/4
*D:	*D:	*D:	*D:
=41	=41	=41	=41
4D	4V	8r	8A'L
.	.	8AA 8C# 8E	(32ALK
.	.	.	16e'JJ)
.	.	.	32r
4D	4V7d	8r	8e'L
.	.	8GG 8BB 8C# 8E	(32eLK
.	.	.	16a'JJ)
.	.	.	32r
=42	=42	=42	=42
4D	4Ib	8r	8a'L
.	.	8FF# 8AA 8D	(32aLK
.	.	.	16dd'JJ)
.	.	.	32r
4D	4I	8r	8dd'L
.	.	8DD 8FF# 8AA	(32ddLK
.	.	.	16ff#'JJ)
.	.	.	32r
=43	=43	=43	=43
4D	4Vb	8r	8ff#'L
.	.	8CC# 8EE 8AA	(32ff#LK
.	.	.	16gg'JJ)
.	.	.	32r
4D	4V7d	8r	8gg'L
.	.	8GG 8AA	(32ggLK
.	.	.	16ccc#'JJ)
.	.	.	32r
=44	=44	=44	=44
2D	2Ib	8r	8ccc#'L
.	.	8FF# 8AA	(32ccc#LK
.	.	.	16ddd'JJ)
.	.	.	32r
.	.	4r	8ddd'L
.	.	.	(32dddLK
.	.	.	16aa'JJ)
.	.	.	32r
=45	=45	=45	=45
4D	4Vb	8r	8aa'L
.	.	8CC# 8GG 8AA	(32aaLK
.	.	.	16ee'JJ)
.	.	.	32r
4D	4V7d	8r	8ee'L
.	.	8GG 8AA 8C#	(32eeLK
.	.	.	16a'JJ)
.	.	.	32r
=46	=46	=46	=46
4D	4Ib	8r	8a'L
.	.	8FF# 8AA 8D	(32aLK
.	.	.	16dd'JJ)
.	.	.	32r
4D	4I	8r	8dd'L
.	.	8D 8F#	(32ddLK
.	.	.	16d'JJ)
.	.	.	32r
=47	=47	=47	=47
4P	4ii7d	8r	8d'L
.	.	8D 8E	(32dLK
.	.	.	16a'JJ)
.	.	.	32r
4D	4V	8r	8a'L
.	.	8AA 8C# 8E	(32aLK
.	.	.	16A'JJ)
.	.	.	32r
=48	=48	=48	=48
2T	2I	8r	8A'L
.	.	8D	(32ALK
.	.	.	16d'JJ)
.	.	.	32r
.	.	8DD	4r
.	.	8r	.
*-	*-	*-	*-
!!!COM: Beethoven
!!!OTL: 24 Variationen uber Venni Amore von V. Righini
!!!Variation: Variation 3 a
**function	**harm	**kern	**kern
*	*	*clefF4	*clefG2
*	*	*k[f#c#]	*k[f#c#]
*M2/4	*M2/4	*M2/4	*M2/4
*D:	*D:	*D:	*D:
=49	=49	=49	=49
4T	4I	16DDLL	8a'L 8ff#'
.	.	16EE	.
.	.	16FF#	(8aJ 8ff#
.	.	16GGJJ	.
4T	4V7	16AALL	8g'L) 8ee'
.	.	16BB	.
.	.	16C	(8gJ 8ee
.	.	16C#JJ	.
=50	=50	=50	=50
2T	2I	16DLL	8f#'L) 8dd'
.	.	16E	.
.	.	16F#	8f#'J 8dd'
.	.	16GJJ	.
.	.	16ALL	8r
.	.	16B	.
.	.	16c	16r
.	.	16c#JJ	16a' 16cc#'
*	*	*clefG2	*
=51	=51	=51	=51
2T	2IV	16dLL	8g' 8b'
.	.	16e	.
.	.	16f#	8r
.	.	16gJJ	.
*	*	*	*clefF4
.	.	16aLL	8G' 8B'
.	.	16b	.
.	.	16cc	8r
.	.	16cc#JJ	.
=52	=52	=52	=52
2T	2Ib	16ddLL	8F#' 8A'
.	.	16ee	.
.	.	16ff#	8r
.	.	16ggJJ	.
.	.	16aaLL	4r
.	.	16bb	.
.	.	16ccc#	.
.	.	16dddJJ	.
=53	=53	=53	=53
2T	2Ib	4r	16AALL
.	.	.	16BB
.	.	.	16C#
.	.	.	16DJJ
*	*	*clefF4	*
.	.	8FF#L 8D	16ELL
.	.	.	16F#
.	.	(8FF#J 8D	16G
.	.	.	16G#JJ
=54	=54	=54	=54
2T	2V7d	8GGL) 8C#	16ALL
.	.	.	16B
.	.	8GGJ 8C#	16c#
.	.	.	16dJJ
*	*	*	*clefG2
.	.	8r	16eLL
.	.	.	16f#
.	.	16r	16g
.	.	16C#' 16G'	16g#JJ
=55	=55	=55	=55
4T	4I	8D' 8F#'	16aLL
.	.	.	16b
.	.	8r	16cc#
.	.	.	16ddJJ
4T	4Ib	8F#' 8d'	16eeLL
.	.	.	16ff#
.	.	8r	16gg
.	.	.	16gg#JJ
=56	=56	=56	=56
2D	2V	8A' 8c#'	8aa
.	.	8r	8r
.	.	8AA'	4r
.	.	8r	.
*-	*-	*-	*-
!!!COM: Beethoven
!!!OTL: 24 Variationen uber Venni Amore von V. Righini
!!!Variation: Variation 3 b
**function	**harm	**kern	**kern
*	*	*clefF4	*clefG2
*	*	*k[f#c#]	*k[f#c#]
*M2/4	*M2/4	*M2/4	*M2/4
*D:	*D:	*D:	*D:
=57	=57	=57	=57
2D	2V7	16AAALL	8ee'L 8gg'
.	.	16BBB	.
.	.	16CC#	(8eeJ 8gg
.	.	16DDJJ	.
.	.	16EELL	8g'L) 8cc#'
.	.	16FF#	.
.	.	16GG	(8gJ 8cc#
.	.	16GG#JJ	.
=58	=58	=58	=58
2D	2Ic	16AALL	8f#'L) 8dd'
.	.	16BB	.
.	.	16C#	8f#'J 8dd'
.	.	16DJJ	.
.	.	16ELL	8r
.	.	16F#	.
.	.	16G	16r
.	.	16G#JJ	16d' 16f#'
*	*	*clefG2	*
=59	=59	=59	=59
2D	2V7	16ALL	8c#' 8g'
.	.	16B	.
.	.	16c#	8r
.	.	16dJJ	.
*	*	*	*clefF4
.	.	16eLL	8G' 8c#'
.	.	16f#	.
.	.	16g	8r
.	.	16g#JJ	.
=60	=60	=60	=60
2D	2Ib	16aLL	8F#' 8d'
.	.	16b	.
.	.	16cc#	8r
.	.	16ddJJ	.
.	.	16eeLL	4r
.	.	16ff#	.
.	.	16gg	.
.	.	16aaJJ	.
=61	=61	=61	=61
4D	4V	4r	16AALL
.	.	.	16BB
.	.	.	16C#
.	.	.	16DJJ
*	*	*clefF4	*
4D	4V7d	8GGGL 8GG	16ELL
.	.	.	16F#
.	.	(8GGGJ 8GG	16G
.	.	.	16G#JJ
=62	=62	=62	=62
2D	2Ib	8FFF#L) 8FF#	16ALL
.	.	.	16B
.	.	8FFF#J 8FF#	16c#
.	.	.	16dJJ
*	*	*	*clefG2
.	.	8.r	16eLL
.	.	.	16f#
.	.	.	16g
.	.	16D' 16F#'	16g#JJ
=63	=63	=63	=63
4D	4V7b	8G'	16aLL
.	.	.	16b
.	.	8r	16cc#
.	.	.	16ddJJ
4D	4V7	8AA' 8C#' 8E'	16eeLL
.	.	.	16ff#
.	.	8r	16gg
.	.	.	16gg#JJ
=64	=64	=64	=64
2T	2I	8D'	16aaLL
.	.	.	16bb
.	.	8r	16ccc#
.	.	.	16dddJJ
.	.	8DD'	4r
.	.	8r	.
*-	*-	*-	*-
!!!COM: Beethoven
!!!OTL: 24 Variationen uber Venni Amore von V. Righini
!!!Variation: Variation 4 a
**function	**harm	**kern	**kern
*	*	*clefF4	*clefG2
*	*	*k[f#c#]	*k[f#c#]
*M2/4	*M2/4	*M2/4	*M2/4
*D:	*D:	*D:	*D:
=65	=65	=65	=65
*	*	*^	*
4T	4I	4D	4F#	[2A
4T	4V7	4AA	(8GL	.
.	.	.	8EJ)	.
=66	=66	=66	=66	=66
2T	2Ib	4FF#	(8EL	2A]
.	.	.	8DJ)	.
.	.	4r	(8DL	.
.	.	.	8C#J)	.
=67	=67	=67	=67	=67
2T	2IV	4GG	(8C#L	[2d
.	.	.	8BBJ)	.
.	.	4GG	(8BBL	.
.	.	.	8DJ)	.
=68	=68	=68	=68	=68
2T	2Ib	2FF#	8DL	2d]
.	.	.	8AAJ	.
.	.	.	4AA	.
=69	=69	=69	=69	=69
2T	2I	4.DD	8r	4a
.	.	.	16FF#LL	.
.	.	.	16AAJJ	.
.	.	.	[4D	4dd
.	.	8FF#	.	.
=70	=70	=70	=70	=70
2T	2V7b	4.AA	8DL]	4ee
.	.	.	16C#L	.
.	.	.	16EJJ	.
.	.	.	[4G	4aa
.	.	8C#	.	.
=71	=71	=71	=71	=71
4.T	4.I	4.D	8GL]	2ddd
.	.	.	16F#L	.
.	.	.	16EJJ	.
.	.	.	8F#L	.
8T	8viiob/V	8BB	8G#J	.
=72	=72	=72	=72	=72
2D	2V	8C#L	4A	4aa
.	.	8BBJ	.	.
.	.	8AA	4r	4r
.	.	8r	.	.
*-	*-	*-	*-	*-
!!!COM: Beethoven
!!!OTL: 24 Variationen uber Venni Amore von V. Righini
!!!Variation: Variation 4 b
**function	**harm	**kern	**kern
*	*	*clefF4	*clefG2
*	*	*k[f#c#]	*k[f#c#]
*M2/4	*M2/4	*M2/4	*M2/4
*D:	*D:	*D:	*D:
=73	=73	=73	=73
2D	2V7	[2AAA	4r
*	*	*	*^
.	.	.	(4gg	([4ccc#
=74	=74	=74	=74	=74
2D	2Ic	2AAA]	4ff#)	8ccc#L]
.	.	.	.	8dddJ)
.	.	.	4dd	8ff#'L
.	.	.	.	8ff#'J
=75	=75	=75	=75	=75
2D	2V7	2AA	4r	4r
.	.	.	(4gg	([4cc#
=76	=76	=76	=76	=76
2D	2Ic	2A	8cc#L]	4ff#)
.	.	.	8ddJ)	.
.	.	.	8f#'L	4dd
.	.	.	8f#'J	.
*	*	*	*v	*v
=77	=77	=77	=77
2D	2V7b	4r	2A
*	*	*^	*
.	.	4C#	([4G	.
=78	=78	=78	=78	=78
4T	4I	4D	8GL]	4d
.	.	.	8F#J)	.
4T	4Ib	4FF#	8D'L	4a
.	.	.	8D'J	.
=79	=79	=79	=79	=79
4P	4ii7b	4GG	8DL	4ee
.	.	.	16C#L	.
.	.	.	16BBJJ	.
4D	4V	8AAL	8C#L	4aa
.	.	8AAJ	8C#J	.
=80	=80	=80	=80	=80
2T	2I	4DD	4D	4ddd
*	*	*	*v	*v
.	.	4DD	4r
*-	*-	*-	*-
!!!COM: Beethoven
!!!OTL: 24 Variationen uber Venni Amore von V. Righini
!!!Variation: Variation 5 a
**function	**harm	**kern	**kern
*	*	*clefF4	*clefG2
*	*	*k[f#c#]	*k[f#c#]
*M2/4	*M2/4	*M2/4	*M2/4
*D:	*D:	*D:	*D:
=81	=81	=81	=81
4.T	4.I	4D 4d	24f#LL
.	.	.	24ff#
.	.	.	24f#J
.	.	.	24gL
.	.	.	24gg
.	.	.	24gJJ
.	.	8r	24f#LL
.	.	.	24ff#
.	.	.	24f#J
8T	8Vb	8C# 8c#	24aL
.	.	.	24aa
.	.	.	24aJJ
=82	=82	=82	=82
4.T	4.vi	4BB 4B	24dLL
.	.	.	24dd
.	.	.	24dJ
.	.	.	24eL
.	.	.	24ee
.	.	.	24eJJ
.	.	8r	24dLL
.	.	.	24dd
.	.	.	24dJ
8T	8Ic	8AA 8A	24f#L
.	.	.	24ff#
.	.	.	24f#JJ
=83	=83	=83	=83
8T	8IV	8GGL 8G	24BLL
.	.	.	24b
.	.	.	24BJ
8T	8viiob	8EEJ 8E	24c#L
.	.	.	24cc#
.	.	.	24c#JJ
8T	8Ic	8AAL 8A	24dLL
.	.	.	24dd
.	.	.	24dJ
8T	8iib	8GGJ 8G	24eL
.	.	.	24ee
.	.	.	24eJJ
=84	=84	=84	=84
4.T	4.Ib	4FF# 4F#	24dLL
.	.	.	24dd
.	.	.	24dJ
.	.	.	24c#L
.	.	.	24cc#
.	.	.	24c#JJ
.	.	8r	24BLL
.	.	.	24b
.	.	.	24BJ
8T	8viioD7d/vi	8GG 8G	24A#L
.	.	.	24a#
.	.	.	24A#JJ
=85	=85	=85	=85
4T	4vi7b	8FF#L 8F#	24ALL
.	.	.	24a
.	.	.	24AJ
.	.	8DDJ 8D	24BL
.	.	.	24b
.	.	.	24BJJ
4T	4V7/ii	8DD#L 8D#	24F#LL
.	.	.	24f#
.	.	.	24F#J
.	.	8BBBJ 8BB	24AL
.	.	.	24a
.	.	.	24AJJ
=86	=86	=86	=86
*	*	*	*clefF4
4T	4ii	8EEL 8E	24GLL
.	.	.	24g
.	.	.	24GJ
.	.	8BBB#J 8BB#	24AL
.	.	.	24a
.	.	.	24AJJ
4T	4V7	8CC#L 8C#	24ELL
.	.	.	24e
.	.	.	24EJ
.	.	8AAAJ 8AA	24GL
.	.	.	24g
.	.	.	24GJJ
=87	=87	=87	=87
8T	8I	8DDL 8D	24F#LL
.	.	.	24f#
.	.	.	24F#J
8T	8viio/vi	8AAA#J 8AA#	24EL
.	.	.	24e
.	.	.	24EJJ
8T	8vi	8BBBL 8BB	24DLL
.	.	.	24d
.	.	.	24DJ
8P	8V7b/V	8GGG#J 8GG#	24EL
.	.	.	24e
.	.	.	24EJJ
=88	=88	=88	=88
2D	2V	4AAA 4AA	24C#LL
.	.	.	24c#
.	.	.	24C#J
.	.	.	24BBL
.	.	.	24B
.	.	.	24BBJJ
.	.	8r	8AA
.	.	8AAA	8r
*-	*-	*-	*-
!!!COM: Beethoven
!!!OTL: 24 Variationen uber Venni Amore von V. Righini
!!!Variation: Variation 5 b
**function	**harm	**kern	**kern
*	*	*clefF4	*clefG2
*	*	*k[f#c#]	*k[f#c#]
*M2/4	*M2/4	*M2/4	*M2/4
*D:	*D:	*D:	*D:
=89	=89	=89	=89
*	*	*^	*
2D	2V7	[2AA	4r	24C#LL
.	.	.	.	24c#
.	.	.	.	24C#J
.	.	.	.	24EL
.	.	.	.	24e
.	.	.	.	24EJJ
*	*	*	*	*clefG2
.	.	.	8r	24GLL
.	.	.	.	24g
.	.	.	.	24GJ
.	.	.	8C#	24B-L
.	.	.	.	24b-
.	.	.	.	24B-JJ
=90	=90	=90	=90	=90
2D	2ic	2AA]	8DL	24ALL
.	.	.	.	24a
.	.	.	.	24AJ
.	.	.	8GJ	24c#L
.	.	.	.	24cc#
.	.	.	.	24c#JJ
.	.	.	8FL	24dLL
.	.	.	.	24dd
.	.	.	.	24dJ
.	.	.	8DJ	24fL
.	.	.	.	24ff
.	.	.	.	24fJJ
=91	=91	=91	=91	=91
2D	2V7	[2AA	4.C#	24eLL
.	.	.	.	24ee
.	.	.	.	24eJ
.	.	.	.	24gL
.	.	.	.	24gg
.	.	.	.	24gJJ
.	.	.	.	24aLL
.	.	.	.	24aa
.	.	.	.	24aJ
.	.	.	8CC#	24b-L
.	.	.	.	24bb-
.	.	.	.	24b-JJ
=92	=92	=92	=92	=92
2D	2ic	2AA]	8DDL	24aLL
.	.	.	.	24aa
.	.	.	.	24aJ
.	.	.	8GGJ	24cc#L
.	.	.	.	24ccc#
.	.	.	.	24cc#JJ
.	.	.	8FFL	24ddLL
.	.	.	.	24ddd
.	.	.	.	24ddJ
.	.	.	8DDJ	24ffL
.	.	.	.	24fff
.	.	.	.	24ffJJ
=93	=93	=93	=93	=93
2D	2V7	[2AA	8CC#L	24eeLL
.	.	.	.	24eee
.	.	.	.	24eeJ
.	.	.	8AAAJ	24cc#L
.	.	.	.	24ccc#
.	.	.	.	24cc#JJ
.	.	.	8BBBL	24aLL
.	.	.	.	24aa
.	.	.	.	24aJ
.	.	.	8CC#J	24gL
.	.	.	.	24gg
.	.	.	.	24gJJ
=94	=94	=94	=94	=94
4.T	4.I	4AA]	8DDL	24f#LL
.	.	.	.	24ff#
.	.	.	.	24f#J
.	.	.	8EEJ	24eL
.	.	.	.	24ee
.	.	.	.	24eJJ
*	*	*v	*v	*
.	.	8FFL	24dLL
.	.	.	24dd
.	.	.	24dJ
8T	8V7b/IV	8FF#J	24cL
.	.	.	24cc
.	.	.	24cJJ
=95	=95	=95	=95
8P	8IV	8GGL	24BLL
.	.	.	24b
.	.	.	24BJ
8P	8viio/V	8GG#J	24G#L
.	.	.	24g#
.	.	.	24G#JJ
4D	4V	8AAL	24ALL
.	.	.	24a
.	.	.	24AJ
*	*	*	*clefF4
.	.	8AAAJ	24C#L
.	.	.	24c#
.	.	.	24C#JJ
=96	=96	=96	=96
2T	2I	(8DDL	24DLL
.	.	.	24d
.	.	.	24DJJ
.	.	16FF#L	8r
.	.	16AAJJ)	.
.	.	8D	4r
.	.	8r	.
*-	*-	*-	*-
!!!COM: Beethoven
!!!OTL: 24 Variationen uber Venni Amore von V. Righini
!!!Variation: Variation 6 a
**function	**harm	**kern	**kern
*	*	*clefG2	*clefG2
*	*	*k[f#c#]	*k[f#c#]
*M2/4	*M2/4	*M2/4	*M2/4
*D:	*D:	*D:	*D:
=97	=97	=97	=97
2T	2I	(8f#L 8a	(8ff#L 8aa
.	.	8c#'J) 8e#'	8cc#'J) 8ee#'
.	.	(8c#L 8e#	(8cc#L 8ee#
.	.	8d'J) 8f#'	8dd'J) 8ff#'
=98	=98	=98	=98
2T	2vi	(8dL 8f#	(8ddL 8ff#
.	.	8A#'J) 8c#'	8a#'J) 8cc#'
.	.	(8A#L 8c#	(8a#L 8cc#
.	.	8B'J) 8d'	8b'J) 8dd'
*	*	*clefF4	*
=99	=99	=99	=99
2T	2IV	(8BL 8d	(8bL 8dd
.	.	8F#'J) 8A#'	8f#'J) 8a#'
.	.	(8F#L 8A#	(8f#L 8a#
.	.	8G'J) 8B'	8g'J) 8b'
=100	=100	=100	=100
2T	2Ib	(8GL 8B	(8gL 8b
.	.	8E#'J) 8G#'	8e#'J) 8g#'
.	.	(8E#L 8G#	(8e#L 8g#
.	.	8F#'J) 8A'	8f#'J) 8a'
=101	=101	=101	=101
2T	2Ib	4.F# 4.A	4.f# 4.a
.	.	8D 8F#	8d 8f#
=102	=102	=102	=102
4T	4I	(8DL 8F#	(8dL 8f#
.	.	8E'J) 8G'	8e'J) 8g'
4T	4V7	(8EL 8G	(8eL 8g
.	.	8AA'J) 8E'	8A'J) 8e'
=103	=103	=103	=103
4T	4V	(8AAL 8E	(8AL 8e
.	.	8D'J) 8F#'	8d'J) 8f#'
4T	4Ib	(8DL 8F#	(8dL 8f#
.	.	8FF#'J) 8D'	8F#'J) 8d'
=104	=104	=104	=104
2D	2V	(8FF#L 8D	(8F#L 8d
.	.	8AA'J) 8E'	8A'J) 8e'
.	.	4r	4r
*-	*-	*-	*-
!!!COM: Beethoven
!!!OTL: 24 Variationen uber Venni Amore von V. Righini
!!!Variation: Variation 6 b
**function	**harm	**kern	**kern
*	*	*clefG2	*clefG2
*	*	*k[f#c#]	*k[f#c#]
*M2/4	*M2/4	*M2/4	*M2/4
*D:	*D:	*D:	*D:
=105	=105	=105	=105
2D	2V7	2r	8a' 8ee'
.	.	.	(4dd 4ff#
.	.	.	8ee') 8gg'
=106	=106	=106	=106
2D	2I	(8f#L 8a	4ff#' 4aa'
.	.	8c#'J) 8e'	.
.	.	(8c#L 8e	4r
.	.	8d'J) 8f#'	.
=107	=107	=107	=107
2D	2V7	4A 4e	8ee' 8gg'
.	.	.	(4dd 4ff#
.	.	4r	.
.	.	.	8a') 8ee'
*	*	*clefF4	*
=108	=108	=108	=108
2D	2I	(8F#L 8d	4f#' 4dd'
.	.	8E'J) 8A'	.
.	.	(8EL 8A	4r
.	.	8D'J) 8F#'	.
=109	=109	=109	=109
2D	2V7	4AA 4E	8A' 8e'
.	.	.	(4d 4f#
.	.	4r	.
.	.	.	8e') 8g'
=110	=110	=110	=110
2D	2I	(8FF#L 8D	4f#' 4a'
.	.	8EE'J) 8AA'	.
.	.	(8EEL 8AA	4r
.	.	8DD'J) 8FF#'	.
=111	=111	=111	=111
*	*	*	*^
2D	2V7	4AAA 4EE	2ee 2gg	8aa'
.	.	.	.	(4bb
.	.	4r	.	.
.	.	.	.	8ccc#')
=112	=112	=112	=112	=112
2T	2I	4DD	4dd 4ff#	4ddd
*	*	*	*v	*v
.	.	4r	4dd
*-	*-	*-	*-
!!!COM: Beethoven
!!!OTL: 24 Variationen uber Venni Amore von V. Righini
!!!Variation: Variation 6 b2
**function	**harm	**kern	**kern
*	*	*clefG2	*clefG2
*	*	*k[f#c#]	*k[f#c#]
*M2/4	*M2/4	*M2/4	*M2/4
*D:	*D:	*D:	*D:
=113	=113	=113	=113
2D	2V7	8A' 8e'	2r
.	.	(4d 4f#	.
.	.	8e') 8g'	.
=114	=114	=114	=114
2D	2Ib	4f#' 4a'	(8ff#L 8aa
.	.	.	8cc#'J) 8ee'
.	.	4r	(8cc#L 8ee
.	.	.	8dd'J) 8ff#'
=115	=115	=115	=115
2D	2V7	8e' 8g'	4a 4ee
.	.	(4d 4f#	.
.	.	.	4r
.	.	8A') 8e'	.
=116	=116	=116	=116
2D	2Ib	4F#' 4d'	(8f#L 8dd
.	.	.	8e'J) 8a'
.	.	4r	(8eL 8a
.	.	.	8d'J) 8f#'
*	*	*clefF4	*
=117	=117	=117	=117
2D	2V7	8AA' 8E'	4A 4e
.	.	(4D 4F#	.
.	.	.	4r
.	.	8E') 8G'	.
=118	=118	=118	=118
2D	2Ib	4F#' 4A'	8dd' 8ff#'
.	.	.	(4ee 4gg
.	.	4r	.
.	.	.	8ee#') 8gg#'
=119	=119	=119	=119
*	*	*	*^
4D	4Ib	4r	8ff#'	8aa'
.	.	.	4.ee 4.gg	(4bb
4D	4V7	[4AA	.	.
.	.	.	.	8ccc#')
=120	=120	=120	=120	=120
2T	2I	8AAL]	4dd 4ff#	4ddd
*	*	*	*v	*v
.	.	8DDJ	.
.	.	4r	4r
*-	*-	*-	*-
!!!COM: Beethoven
!!!OTL: 24 Variationen uber Venni Amore von V. Righini
!!!Variation: Variation 7 a
**function	**harm	**kern	**kern
*	*	*clefF4	*clefG2
*	*	*k[f#c#]	*k[f#c#]
*M2/4	*M2/4	*M2/4	*M2/4
*D:	*D:	*D:	*D:
=121	=121	=121	=121
4T	4I	4D	2r
4T	4viio/vi	(8.AA#L	.
.	.	32BBLL	.
.	.	32C#JJJ)	.
=122	=122	=122	=122
4T	4vi	4BB	4dd
4T	4I7+b	(8.FF#L	(8.a#L
.	.	32GGLL	32bLL
.	.	32AAJJJ)	32cc#JJJ)
=123	=123	=123	=123
*	*	*	*^
4T	4IV	4GG	4b	4bb
4T	4viio	(8.CC#L	[4ee 4bb	(8.eeL
.	.	32DDLL	.	32ff#LL
.	.	32EEJJJ)	.	32ggJJJ)
=124	=124	=124	=124	=124
2T	2Ib	4FF#	4ee]	[4aa
.	.	[4F#	[4dd	(8.aaL]
.	.	.	.	32bbLL
.	.	.	.	32ccc#JJJ)
=125	=125	=125	=125	=125
4T	4Ib	8.F#L]	4dd]	4ddd
.	.	32GLL	.	.
.	.	32AJJJ	.	.
4T	4vi	[4B	[4b [4dd	(8.ddL
.	.	.	.	32eeLL
.	.	.	.	32ff#JJJ)
=126	=126	=126	=126	=126
4T	4IVb	8.BL]	4b] 4dd]	[4gg
.	.	32c#LL	.	.
.	.	32dJJJ	.	.
*	*	*^	*	*
4T	4V7	4e	(8.AL	4g 4cc#	(8.ggL]
.	.	.	32BLL	.	32ff#LL
.	.	.	32c#JJJ)	.	32eeJJJ)
=127	=127	=127	=127	=127	=127
4T	4I	4r	4d	4f#	([8ddL
.	.	.	.	.	32ddLL]
.	.	.	.	.	32cc#
.	.	.	.	.	32b
.	.	.	.	.	32aJJJ)
4P	4V7c/V	4BB 4D	(8.EL	4r	8.g#L
.	.	.	32F#LL	.	[16eeJk
.	.	.	32G#JJJ)	.	.
=128	=128	=128	=128	=128	=128
2D	2V	4.AA 4.C#	4.A	4.e	(4ee]
.	.	.	.	.	8a')
*	*	*v	*v	*	*
*	*	*	*v	*v
.	.	8r	8r
*-	*-	*-	*-
!!!COM: Beethoven
!!!OTL: 24 Variationen uber Venni Amore von V. Righini
!!!Variation: Variation 7 b
**function	**harm	**kern	**kern
*	*	*clefF4	*clefG2
*	*	*k[f#c#]	*k[f#c#]
*M2/4	*M2/4	*M2/4	*M2/4
*D:	*D:	*D:	*D:
=129	=129	=129	=129
4D	4V	2r	(8.AL
.	.	.	32BLL
.	.	.	32c#JJJ)
4D	4I	.	(8.dL
.	.	.	32eLL
.	.	.	32f#JJJ)
=130	=130	=130	=130
4D	4V7	(8.AAAL	(4g
.	.	32BBBLL	.
.	.	32CC#JJJ)	.
4D	4I	(8.DDL	8.f#L)
.	.	32EELL	16dJk
.	.	32FF#JJJ)	.
=131	=131	=131	=131
*	*	*	*^
4D	4V7d	(4GG	4c#	(8.aL
.	.	.	.	32bLL
.	.	.	.	32cc#JJJ)
4D	4Ib	8.FF#L)	4r	(8.ddL
.	.	16DDJk	.	32eeLL
.	.	.	.	32ff#JJJ)
=132	=132	=132	=132	=132
4D	4V7b	4CC#	(8.AAL	(4gg
.	.	.	32BBLL	.
.	.	.	32C#JJJ)	.
4D	4I	4DD	(8.DL	8.ff#L)
.	.	.	32ELL	16ddJk
.	.	.	32F#JJJ)	.
=133	=133	=133	=133	=133
4D	4V7d	4GG	(8.AL	[2a
.	.	.	32BLL	.
.	.	.	32c#JJJ)	.
*	*	*^	*	*
4D	4Ib	[4AA	4FF# 4F#	(8.dL	.
.	.	.	.	32eLL	.
.	.	.	.	32f#JJJ)	.
=134	=134	=134	=134	=134	=134
4D	4V7c	2AA_	4EE 4E	4g	(8.aL]
.	.	.	.	.	32bLL
.	.	.	.	.	32cc#JJJ)
4D	4I	.	4DD 4D	4f#	8.ddL
.	.	.	.	.	16eeJk
*	*	*v	*v	*	*
=135	=135	=135	=135	=135
4D	4Cc	8AA]'	4dd	8.ff#L
.	.	8r	.	.
.	.	.	.	16ggJk
4D	4V7	[4AAA	4ee 4gg	(8.aaL
.	.	.	.	32bbLL
.	.	.	.	32ccc#JJJ)
=136	=136	=136	=136	=136
2T	2I	(8.AAAL]	8dd 8ff#	8ddd
*	*	*	*v	*v
.	.	.	8r
.	.	32BBBLL	.
.	.	32CC#JJJ)	.
.	.	8DD	4r
.	.	8r	.
*-	*-	*-	*-
!!!COM: Beethoven
!!!OTL: 24 Variationen uber Venni Amore von V. Righini
!!!Variation: Variation 8 a
**function	**harm	**kern	**kern
*	*	*clefF4	*clefG2
*	*	*k[f#c#]	*k[f#c#]
*M2/4	*M2/4	*M2/4	*M2/4
*D:	*D:	*D:	*D:
=137	=137	=137	=137
*	*	*^	*
4T	4I	(4D	(4A	8ff#L
.	.	.	.	[8aaJ
4T	4V7d	(4G)	([4A) 4c#	16aaLL]
.	.	.	.	16gg
.	.	.	.	16ff#
.	.	.	.	16eeJJ
=138	=138	=138	=138	=138
4T	4Ib	4F#)	4A]) 4d	8ddL
.	.	.	.	[8ff#J
4T	4I	(4D	[4d	16ff#LL]
.	.	.	.	16ee
.	.	.	.	16dd
.	.	.	.	([16cc#JJ
=139	=139	=139	=139	=139
2T	2IV	4G	2d]	16cc#LL]
.	.	.	.	16b
.	.	.	.	16dd
.	.	.	.	16cc#JJ
.	.	4B	.	16eeLL
.	.	.	.	16dd
.	.	.	.	16cc#
.	.	.	.	16bJJ
*	*	*v	*v	*
=140	=140	=140	=140
2T	2I	8d)	16aLL
.	.	.	16g#
.	.	8r	16b
.	.	.	16aJJ
.	.	4r	16gLL
.	.	.	16f#
.	.	.	16e
.	.	.	16dJJ)
=141	=141	=141	=141
2T	2I	4r	(16c#LL
.	.	.	16d
.	.	.	16e
.	.	.	16dJJ)
*	*	*	*^
.	.	4DD [4AA 4D	8f#	4f#^
.	.	.	8A	.
=142	=142	=142	=142	=142
2T	2V7b	8CC# 8AA] 8C#	(16d#LL	4r
.	.	.	16e	.
.	.	8r	16f#	.
.	.	.	16eJJ)	.
.	.	4CC# [4AA 4C#	8g	4g^
.	.	.	8A	.
=143	=143	=143	=143	=143
2T	2I	8DD 8AA] 8D	16c#LL	4r
.	.	.	16d	.
.	.	8r	16e	.
.	.	.	[16dJJ	.
.	.	(4DD	8dL]	[4f#
.	.	.	[8AJ	.
=144	=144	=144	=144	=144
2D	2V	(4AA)	(4A] 4d	(4f#]
.	.	8AAA)	8A) 8c#	8e)
*	*	*	*v	*v
.	.	8r	8r
*-	*-	*-	*-
!!!COM: Beethoven
!!!OTL: 24 Variationen uber Venni Amore von V. Righini
!!!Variation: Variation 8 b
**function	**harm	**kern	**kern
*	*	*clefF4	*clefG2
*	*	*k[f#c#]	*k[f#c#]
*M2/4	*M2/4	*M2/4	*M2/4
*D:	*D:	*D:	*D:
=145	=145	=145	=145
4D	4V	4A	(8a
.	.	.	4gg)
*	*	*^	*
4D	4V7d	(4G	([4A 4e	.
.	.	.	.	(16eeLL
.	.	.	.	16cc#JJ)
=146	=146	=146	=146	=146
4D	4Ib	4F#)	2A]) 2d	(8dd
.	.	.	.	4aa)
4D	4I	4D	.	.
.	.	.	.	(16ff#LL
.	.	.	.	16ddJJ)
=147	=147	=147	=147	=147
4D	4V	4A	4c#	(8a
.	.	.	.	4gg)
4D	4V7d	(4G	([4A 4e	.
.	.	.	.	(16eeLL
.	.	.	.	16cc#JJ)
=148	=148	=148	=148	=148
4D	4Ib	4F#)	2A]) 2d	(8dd
.	.	.	.	4aa)
4D	4I	4D	.	.
.	.	.	.	(16ff#LL
.	.	.	.	16ddJJ)
=149	=149	=149	=149	=149
4D	4V	(4A	2A 2e	(16cc#LL
.	.	.	.	16dd
.	.	.	.	16ee
.	.	.	.	16ff#JJ
4D	4V7d	4G	.	16ggLL
.	.	.	.	16aa
.	.	.	.	16bb
.	.	.	.	16ccc#JJ
=150	=150	=150	=150	=150
4D	4Ib	4F#	2A 2d	16dddLL
.	.	.	.	16ccc#
.	.	.	.	16eee
.	.	.	.	16dddJJ
4D	4I	4D	.	16ccc#LL
.	.	.	.	16bb
.	.	.	.	16aa
.	.	.	.	16gg#JJ)
=151	=151	=151	=151	=151
2D	2V7	4A)	4r	(16bbLL
.	.	.	.	16aa
.	.	.	.	16gg
.	.	.	.	16ff#JJ
.	.	4AA	[4G	16eeLL
.	.	.	.	16dd
*	*	*	*	*^
.	.	.	.	[8cc#	16cc#
.	.	.	.	.	16eeJJ)
=152	=152	=152	=152	=152	=152
2T	2I	4.D	(4G]	(4cc#]	(4ee
*	*	*	*	*v	*v
.	.	.	8F#)	8dd)
*	*	*v	*v	*
.	.	8r	8r
*-	*-	*-	*-
!!!COM: Beethoven
!!!OTL: 24 Variationen uber Venni Amore von V. Righini
!!!Variation: Variation 9 a
**function	**harm	**kern	**kern
*	*	*clefG2	*clefG2
*	*	*k[f#c#]	*k[f#c#]
*M2/4	*M2/4	*M2/4	*M2/4
*D:	*D:	*D:	*D:
=153	=153	=153	=153
2T	2Ib	[4f# [4a	[4ff# [4aa
.	.	8.f#L] 8.a]	8.ff#L] 8.aa]
.	.	16e#Jk 16g#	16ee#Jk 16gg#
=154	=154	=154	=154
2T	2I	(16eLL 16g	(16eeLL 16gg
.	.	16d# 16f#	16dd# 16ff#
.	.	16d 16f	16dd 16ff
.	.	16c#JJ 16e	16cc#JJ 16ee
.	.	16cLL 16e-	16ccLL 16ee-
.	.	16B 16d	16b 16dd
.	.	16A# 16c#	16a# 16cc#
.	.	16AJJ) 16c	16aJJ) 16cc
*	*	*clefF4	*
=155	=155	=155	=155
2T	2IV	8G' 8B'	8g' 8b'
.	.	8r	8r
.	.	8GG' 8BB' 8D' 8G'	8dd' 8gg' 8bb' 8ddd'
.	.	8r	8r
=156	=156	=156	=156
2T	2I	8D' 8F#' 8A' 8d'	8a' 8dd' 8ff#' 8aa'
.	.	8r	8r
.	.	4r	4r
=157	=157	=157	=157
2T	2I	[4D [4F#	[4d [4f#
.	.	16DLL] 16F#]	16dLL] 16f#]
.	.	(16E 16G	(16e 16g
.	.	16E# 16G#	16e# 16g#
.	.	16F#JJ 16A	16f#JJ 16a
=158	=158	=158	=158
2T	2I	16GLL 16B-	16gLL 16b-
.	.	16G# 16B	16g# 16b
.	.	16A 16c	16a 16cc
.	.	16A#JJ 16c#	16a#JJ 16cc#
*	*	*clefG2	*
.	.	16BLL 16d	16bLL 16dd
.	.	16c 16e-	16cc 16ee-
.	.	16c# 16e	16cc# 16ee
.	.	16dJJ) 16f	16ddJJ) 16ff
=159	=159	=159	=159
2T	2I	8d' 8f#'	8dd' 8ff#'
.	.	8r	8r
*	*	*clefF4	*
.	.	8DD' 8FF#' 8AA' 8D'	8a' 8dd' 8ff#' 8aa'
.	.	8r	8r
=160	=160	=160	=160
2D	2V	8AA' 8C#' 8E' 8A'	8e' 8a' 8cc#' 8ee'
.	.	8r	8r
.	.	4r	4r
*-	*-	*-	*-
!!!COM: Beethoven
!!!OTL: 24 Variationen uber Venni Amore von V. Righini
!!!Variation: Variation 9 b
**function	**harm	**kern	**kern
*	*	*clefG2	*clefG2
*	*	*k[f#c#]	*k[f#c#]
*M2/4	*M2/4	*M2/4	*M2/4
*D:	*D:	*D:	*D:
=161	=161	=161	=161
2D	2V7	[4e [4g	[4ee [4gg
.	.	8.eL] 8.g]	8.eeL] 8.gg]
.	.	(16d#Jk 16f#	(16dd#Jk 16ff#
=162	=162	=162	=162
2D	2V7	16dLL 16f	16ddLL 16ff
.	.	16c# 16e	16cc# 16ee
.	.	16c 16e-	16cc 16ee-
.	.	16BJJ 16d	16bJJ 16dd
*	*	*clefF4	*
.	.	16A#LL 16c#	16a#LL 16cc#
.	.	16A 16c	16a 16cc
.	.	16G 16B	16g 16b
.	.	16F#JJ) 16A	16f#JJ) 16a
=163	=163	=163	=163
4D	4V7	8E' 8G'	8e' 8g'
.	.	8r	8r
4D	4V7d	8GGG' 8GG'	8e' 8a' 8cc#' 8ee'
.	.	8r	8r
=164	=164	=164	=164
2D	2Ib	8FFF#' 8FF#'	8a' 8dd' 8ff#' 8aa'
.	.	8r	8r
.	.	4r	4r
=165	=165	=165	=165
2D	2Vb	[4C# [4E	[4c# [4e
.	.	16C#LL] 16E]	16c#LL] 16e]
.	.	(16D 16F	(16d 16f
.	.	16D# 16F#	16d# 16f#
.	.	16EJJ 16G	16eJJ 16g
=166	=166	=166	=166
2D	2Vb	16E#LL 16G#	16e#LL 16g#
.	.	16F# 16A	16f# 16a
.	.	16G 16B-	16g 16b-
.	.	16G#JJ 16B	16g#JJ 16b
.	.	16ALL 16c	16aLL 16cc
.	.	16A# 16c#	16a# 16cc#
.	.	16B 16d	16b 16dd
.	.	16cJJ) 16e-	16ccJJ) 16ee-
=167	=167	=167	=167
4D	4Vb	8c#' 8e'	8cc#' 8ee'
.	.	8r	8r
4D	4V	8AAA' 8AA'	8cc#' 8ee' 8aa' 8ccc#'
.	.	8r	8r
=168	=168	=168	=168
2T	2I	8DD' 8D'	8dd' 8ff#' 8aa' 8ddd'
.	.	8r	8r
.	.	4r	4r
*-	*-	*-	*-
!!!COM: Beethoven
!!!OTL: 24 Variationen uber Venni Amore von V. Righini
!!!Variation: Variation 10 a
**function	**harm	**kern	**kern
*	*	*clefF4	*clefG2
*	*	*k[f#c#]	*k[f#c#]
*M2/4	*M2/4	*M2/4	*M2/4
*D:	*D:	*D:	*D:
=169	=169	=169	=169
*	*	*^	*
4T	4I	[2D	4d	(8ff#L
.	.	.	.	8ddd'J)
4T	4V	.	4c#	(8eeL
.	.	.	.	8ddd'J)
=170	=170	=170	=170	=170
4T	4vi	2D]	4B 4d	(8ddL
.	.	.	.	8ddd'J)
4T	4V	.	[4A 4c#	(8cc#L
.	.	.	.	8ddd'J)
=171	=171	=171	=171	=171
4T	4V7/IV	[2D	4A] 4c	(8ccL
.	.	.	.	8ddd'J)
4T	4IV	.	4G 4B	(8bL
.	.	.	.	8ddd'J)
=172	=172	=172	=172	=172
4T	4iv	2D]	4G 4B-	(8b-L
.	.	.	.	8ddd'J)
4T	4I	.	4F# 4A	(8aL
.	.	.	.	8ddd'J)
=173	=173	=173	=173	=173
4D	4Ic	[2AA	4F# 4A	(8aL
.	.	.	.	8aa'J)
4D	4IV	.	4G 4B	(8bL
.	.	.	.	8aa'J)
=174	=174	=174	=174	=174
4D	4ii	2AA]	4E 4G	(8gL
.	.	.	.	8aa'J)
4D	4Ic	.	4D 4F#	(8f#L
.	.	.	.	8aa'J)
=175	=175	=175	=175	=175
4D	4V	[2AA	4C# 4E	(8eL
.	.	.	.	8aa'J)
4D	4IV	.	4BB 4D	(8dL
.	.	.	.	8aa'J)
=176	=176	=176	=176	=176
2D	2V	4.AA]	4C# 4E	(8eL
.	.	.	.	8aa'J)
.	.	.	8A	4r
*	*	*v	*v	*
.	.	8r	.
*-	*-	*-	*-
!!!COM: Beethoven
!!!OTL: 24 Variationen uber Venni Amore von V. Righini
!!!Variation: Variation 10 b
**function	**harm	**kern	**kern
*	*	*clefF4	*clefG2
*	*	*k[f#c#]	*k[f#c#]
*M2/4	*M2/4	*M2/4	*M2/4
*D:	*D:	*D:	*D:
=177	=177	=177	=177
2D	2V7b	4r	(8eL
.	.	.	8gg'J)
*	*	*^	*
.	.	(4C#	[4A	4r
=178	=178	=178	=178	=178
2D	2I	8DL)	2A]	4r
.	.	8F#J	.	.
*	*	*v	*v	*
.	.	4r	(8ff#L
.	.	.	8d'J)
=179	=179	=179	=179
2D	2V7b	4r	(8eL
.	.	.	8gg'J)
*	*	*^	*
.	.	(4C#	[4A	4r
=180	=180	=180	=180	=180
2D	2I	8DL)	2A_	4r
.	.	8F#J	.	.
.	.	4r	.	(8ff#L
.	.	.	.	8d'J)
=181	=181	=181	=181	=181
2D	2V7b	4r	4A]	(8eL
.	.	.	.	8gg'J)
*	*	*v	*v	*
.	.	8C#' 8A'	4r
.	.	8r	.
=182	=182	=182	=182
2D	2I	4r	(8ff#L
.	.	.	8d'J)
.	.	8D' 8A'	4r
.	.	8r	.
=183	=183	=183	=183
2D	2V7	8r	(8eeL
.	.	8AA' 8A'	8d'J)
.	.	8r	(8c#L
.	.	8AA' 8G'	8ee'J)
=184	=184	=184	=184
2T	2I	8r	(8dL
.	.	8D 8F#	8dd'J)
.	.	8DD	4r
.	.	8r	.
*-	*-	*-	*-
!!!COM: Beethoven
!!!OTL: 24 Variationen uber Venni Amore von V. Righini
!!!Variation: Variation 11 a
**function	**harm	**kern	**kern
*	*	*clefF4	*clefF4
*	*	*k[f#c#]	*k[f#c#]
*M2/4	*M2/4	*M2/4	*M2/4
*D:	*D:	*D:	*D:
=185	=185	=185	=185
4T	4I	8.DD'L 8.D'	8.A'L 8.d' 8.f#'
.	.	16DD'Jk 16D'	16A'Jk 16e' 16g'
8.T	8.I	8.DD'L 8.D'	8.A'L 8.f#' 8.a'
16T	16V	16AAA'Jk 16AA'	16A'Jk 16c#' 16e'
=186	=186	=186	=186
*	*	*	*^
4T	4vi	4.BBB 4.BB	(4F#	4.d
8.T	8.vi	.	8D)	.
.	.	16r	8r	16r
16T	16I7b	16F# 16f#	.	16dd 16ccc#
*	*	*	*clefG2	*clefG2
=187	=187	=187	=187	=187
2T	2IV	8.G'L 8.g'	8.dd'L	8.bb'
.	.	16G'Jk 16g'	16dd'Jk	16ccc#'
.	.	8.B'L 8.g'	8.dd'L	8.ddd'
.	.	16B'Jk 16g'	16dd'Jk	16bb'
=188	=188	=188	=188	=188
*	*	*clefG2	*	*
*	*	*^	*	*
2T	2I	4.d	(4f#	4.dd	(4aa
.	.	.	8a)	.	8ff#)
*	*	*v	*v	*	*
*	*	*	*v	*v
.	.	8r	8r
=189	=189	=189	=189
*	*	*clefF4	*
2T	2I	8.DD'L 8.AA' 8.D'	8.A'L 8.d' 8.f#'
.	.	16DD'Jk 16AA' 16D'	16A'Jk 16e' 16g'
.	.	8.DD'L 8.AA' 8.D'	8.A'L 8.f#' 8.a'
.	.	16DD'Jk 16AA' 16D'	16A'Jk 16f#' 16b'
=190	=190	=190	=190
*	*	*	*^
2T	2V7b	4.CC# 4.AA 4.C#	4.A 4.e	(4a
.	.	.	.	8g)'
*	*	*	*v	*v
.	.	16r	16r
.	.	16C# 16A 16c#	16a 16ee 16gg
=191	=191	=191	=191
.	.	.	q32ee q32gg
2T	2I	8.D'L 8.A' 8.d'	8.a'L 8.dd' 8.ff#'
.	.	16D'Jk 16A' 16d'	16a'Jk 16cc#' 16ee'
.	.	8.D'L 8.A' 8.d'	8.a'L 8.dd' 8.ff#'
.	.	16D'Jk 16A'	16a'Jk 16ee' 16gg'
=192	=192	=192	=192
*	*	*	*^
2D	2V	4.AA 4.A	4.a	(4dd (4ff#
.	.	.	.	8cc#) 8ee)
*	*	*	*v	*v
.	.	8r	8r
*-	*-	*-	*-
!!!COM: Beethoven
!!!OTL: 24 Variationen uber Venni Amore von V. Righini
!!!Variation: Variation 11 b
**function	**harm	**kern	**kern
*	*	*clefF4	*clefG2
*	*	*k[f#c#]	*k[f#c#]
*M2/4	*M2/4	*M2/4	*M2/4
*D:	*D:	*D:	*D:
=193	=193	=193	=193
2D	2V7	8.AA'L 8.A'	8.c#'L 8.e'
.	.	16AA'Jk 16A'	16c#'Jk 16f#'
.	.	8.AA'L 8.G'	8.c#'L 8.g'
.	.	16AA'Jk 16G'	16c#'Jk 16e'
=194	=194	=194	=194
*	*	*^	*^
2D	2Ic	4.AA	(4F#	4.d	(4a
.	.	.	8D)	.	8f#)
*	*	*v	*v	*	*
*	*	*	*v	*v
.	.	8r	16r
.	.	.	16ff#
=195	=195	=195	=195
*	*	*clefG2	*
2D	2V7	8.A'L 8.a'	8.cc#'L 8.gg'
.	.	16A'Jk 16a'	16cc#'Jk 16ff#'
.	.	8.A'L 8.g'	8.cc#'L 8.gg'
.	.	16A'Jk 16g'	16cc#'Jk 16ee'
=196	=196	=196	=196
*	*	*^	*^
2D	2Ic	4.A	(4f#	4.dd	(4aa
.	.	.	8d)	.	8ddd)
*	*	*v	*v	*	*
*	*	*	*v	*v
.	.	8r	16r
.	.	.	16d 16f#
=197	=197	=197	=197
*	*	*clefF4	*
2D	2V7	8.AA'L 8.A'	8.c#'L 8.e'
.	.	16AA'Jk 16A'	16c#'Jk 16f#'
.	.	8.AA'L 8.G'	8.c#'L 8.g'
.	.	16AA'Jk 16G'	16c#'Jk 16e'
=198	=198	=198	=198
*	*	*^	*^
2D	2Ic	4.AA	(4F#	4.d	(4a
.	.	.	8D)	.	8f#)
*	*	*v	*v	*	*
*	*	*	*v	*v
.	.	16r	16r
.	.	16d	16ff# 16aa
=199	=199	=199	=199
2D	2V7	8.A'L 8.e'	8.gg'L 8.aa'
.	.	16A'Jk 16d'	16ff#'Jk 16aa'
.	.	8.A'L 8.e'	8.gg'L 8.aa'
.	.	16A'Jk 16c#'	16ee'Jk 16aa'
=200	=200	=200	=200
2T	2I	4.D 4.d	(4ff# 4aa
.	.	.	8dd)
.	.	8r	8r
*-	*-	*-	*-
!!!COM: Beethoven
!!!OTL: 24 Variationen uber Venni Amore von V. Righini
!!!Variation: Variation 12 a
**function	**harm	**kern	**kern
*	*	*clefF4	*clefG2
*	*	*k[b-]	*k[b-]
*M2/4	*M2/4	*M2/4	*M2/4
*d:	*d:	*d:	*d:
=201	=201	=201	=201
*	*	*^	*
4T	4i	[2D	(8FL 8A	(4aa
.	.	.	8dJ	.
4T	4viioD7c	.	8GL 8B-	4cc#
.	.	.	8dJ)	.
=202	=202	=202	=202	=202
4T	4ib	2D]	(8FL 8A	(4.dd)
.	.	.	8dJ	.
4T	4viioD7/iv	.	8F#L 8A	.
.	.	.	8cJ)	8ee-)
=203	=203	=203	=203	=203
4T	4IV	[2D	(8GL	(8ee-L
.	.	.	8BJ	8ddJ)
4T	4viioD7b	.	8EL	(8ddL
.	.	.	8B-J)	8cc#J)
=204	=204	=204	=204	=204
2T	2i	2D]	(8FL	(4cc#
.	.	.	8B-J	.
.	.	.	8AL	8dd)
.	.	.	8FJ)	8r
=205	=205	=205	=205	=205
4T	4i	4D	(8DL	4ff
.	.	.	8AJ	.
4T	4viioD7c	(4BB	8DL	(4ff
.	.	.	8G#J)	.
=206	=206	=206	=206	=206
4T	4viioD7d	4BB-)	(8C#L	4.ee)
.	.	.	8GJ	.
4T	4V7	4AA	8C#L	.
.	.	.	8GJ)	8ee
=207	=207	=207	=207	=207
4D	4ic	4AA	(8DL	(8ddL
.	.	.	8FJ	8cc#J
4D	4iiom7b	4BB-	8DL	8ddL
.	.	.	8GJ)	8eeJ)
=208	=208	=208	=208	=208
2D	2V	4.AA	(4C#	4a
.	.	.	8A)	4r
*	*	*v	*v	*
.	.	8r	.
*-	*-	*-	*-
!!!COM: Beethoven
!!!OTL: 24 Variationen uber Venni Amore von V. Righini
!!!Variation: Variation 12 b
**function	**harm	**kern	**kern
*	*	*clefF4	*clefG2
*	*	*k[b-]	*k[b-]
*M2/4	*M2/4	*M2/4	*M2/4
*d:	*d:	*d:	*d:
=209	=209	=209	=209
*	*	*^	*
2D	2viioD7d	4r	8GL	(8.ggL
.	.	.	(8GJ	.
.	.	.	.	16eeJk
.	.	(4BB-	8EL	[4ccc#)
.	.	.	8GJ	.
=210	=210	=210	=210	=210
4D	4V7	2AA)	8EL	4ccc#]
.	.	.	8GJ	.
4D	4ic	.	8FL	(8.dddL
.	.	.	8DJ)	.
.	.	.	.	16aaJk)
=211	=211	=211	=211	=211
2D	2viioD7d	4r	8GL	(8.ggL
.	.	.	(8GJ	.
.	.	.	.	16eeJk
.	.	(4BB-	8EL	[4ccc#)
.	.	.	8GJ	.
=212	=212	=212	=212	=212
4D	4V7	2AA)	8EL	4ccc#]
.	.	.	8GJ	.
4D	4ic	.	8FL	(8.dddL
.	.	.	[8DJ) [8F	.
.	.	.	.	16eeeJk)
=213	=213	=213	=213	=213
.	.	.	.	(q32dd
.	.	.	.	q32ee
2D	2viioD7/V	4.GG#;	4.BB; 4.D;] 4.F;]	4.fff);
.	.	8r	8r	(8eee
=214	=214	=214	=214	=214
4D	4viioc	8r	8r	8dddL
.	.	(8GG	8E	8ccc#J
8T	8ib	8FFL	8D	8dddL
8P	8iiob	8GGJ 8D)	8E	8bb-J)
=215	=215	=215	=215	=215
4D	4Cc	8AA 8D	8F	8bb-
.	.	8r	8r	4aa
4D	4V7	8AA 8E	8G	.
.	.	8r	8r	([8cc#
=216	=216	=216	=216	=216
2T	2i	8D	8F	8cc#L]
*	*	*v	*v	*
.	.	8r	8ddJ)
.	.	8d	4r
.	.	8r	.
*-	*-	*-	*-
!!!COM: Beethoven
!!!OTL: 24 Variationen uber Venni Amore von V. Righini
!!!Variation: Variation 12 b2
**function	**harm	**kern	**kern
*	*	*clefG2	*clefG2
*	*	*k[b-]	*k[b-]
*M2/4	*M2/4	*M2/4	*M2/4
*d:	*d:	*d:	*d:
=217	=217	=217	=217
*	*	*^	*
2D	2viioD7d	4r	8gL	(8.ggL
.	.	.	(8gJ	.
.	.	.	.	16eeJk
.	.	(4B-	8eL	[4ccc#)
.	.	.	8gJ	.
=218	=218	=218	=218	=218
4D	4V7	2A)	8eL	4ccc#]
.	.	.	8gJ	.
4D	4ic	.	8fL	(8.dddL
.	.	.	8dJ)	.
.	.	.	.	16aaJk)
=219	=219	=219	=219	=219
2D	2viioD7d	4r	8gL	(8.ggL
.	.	.	(8gJ	.
.	.	.	.	16eeJk
.	.	(4B-	8eL	[4ccc#)
.	.	.	8gJ	.
=220	=220	=220	=220	=220
4D	4V7	2A)	8eL	4ccc#]
.	.	.	8gJ	.
4D	4ic	.	8fL	(8.dddL
.	.	.	[8dJ) [8f	.
.	.	.	.	16eeeJk)
=221	=221	=221	=221	=221
2D	2viioD7/V	4.G#; 4.B;	4.d;] 4.f;]	4.fff;
.	.	8r	8r	(8eee
*	*	*v	*v	*
=222	=222	=222	=222
*	*	*clefF4	*
4D	4viioD7c	8r	8dddL
.	.	8G 8B- 8e	8ccc#J)
4T	4ib	8r	8r
.	.	(8F 8d	(8ddd
=223	=223	=223	=223
8P	8iiob	8GL 8e	8bb-L)
4D	4ic	8A'J) 8d' 8f'	8aa'J
.	.	8r	8r
8D	8V7	(8A 8e 8g	(8cc#
=224	=224	=224	=224
2T	2i	4d') 4f'	8dd')
.	.	.	8r
.	.	8D'	4r
.	.	8r	.
*-	*-	*-	*-
!!!COM: Beethoven
!!!OTL: 24 Variationen uber Venni Amore von V. Righini
!!!Variation: Variation 13 a
**function	**harm	**kern	**kern
*	*	*clefF4	*clefG2
*	*	*k[b-]	*k[b-]
*M2/4	*M2/4	*M2/4	*M2/4
*d:	*d:	*d:	*d:
=225	=225	=225	=225
*	*	*^	*
4T	4i	8D	(16FLL	(16fLL 16ff
.	.	.	16G)	16g) 16gg
.	.	8r	16A'	16a' 16aa'
.	.	.	16B-'JJ	16b-'JJ 16bb-'
4T	4vb	8C	16A'LL	16a'LL 16aa'
.	.	.	16G'	16g' 16gg'
.	.	8r	16F'	16f' 16ff'
.	.	.	16E'JJ	16e'JJ 16ee'
=226	=226	=226	=226	=226
4T	4VI	8BB-	(16DLL	(16dLL 16dd
.	.	.	16E)	16e) 16ee
.	.	8r	16F'	16f' 16ff'
.	.	.	16G'JJ	16g'JJ 16gg'
4T	4ic	8AA	16F'LL	16f'LL 16ff'
.	.	.	16E'	16e' 16ee'
.	.	8r	16D'	16d' 16dd'
.	.	.	16C'JJ	16c'JJ 16cc'
=227	=227	=227	=227	=227
4T	4iv	8GG	(16BB-LL	(16B-LL 16b-
.	.	.	16C)	16c) 16cc
.	.	8r	16BB-'	16B-' 16b-'
.	.	.	16AA'JJ	16A'JJ 16a'
4T	4iio	8EE	16GG'LL	16G'LL 16g'
.	.	.	16AA'	16A' 16a'
.	.	8r	16BB-'	16B-' 16b-'
.	.	.	16C'JJ	16c'JJ 16cc'
=228	=228	=228	=228	=228
2T	2ib	8FF	(16AALL	(16ALL 16a
.	.	.	16BB-)	16B-) 16b-
.	.	8r	16AA'	16A' 16a'
.	.	.	16GG'JJ	16G'JJ 16g'
.	.	4r	16FF'LL	16F'LL 16f'
.	.	.	16GG'	16G' 16g'
.	.	.	16FF'	16F' 16f'
.	.	.	16EE'JJ	16E'JJ 16e'
=229	=229	=229	=229	=229
4T	4i	8DD	16DD'LL	16D'LL 16d'
.	.	.	16EE'	16E' 16e'
.	.	8r	16FF'	16F' 16f'
.	.	.	16GG'JJ	16G'JJ 16g'
4T	4ib	8FF	16AA'LL	16A'LL 16a'
.	.	.	16BB-'	16B-' 16b-'
.	.	8r	16BB'	16B' 16b'
.	.	.	16C'JJ	16c'JJ 16cc'
=230	=230	=230	=230	=230
2T	2V	8AA	16C#LL	16c#LL 16cc#
.	.	.	16D	16d 16dd
.	.	8r	16D#	16d# 16dd#
.	.	.	16EJJ	16eJJ 16ee
.	.	4r	16FLL	16fLL 16ff
.	.	.	16F#	16f# 16ff#
.	.	.	16G	16g 16gg
.	.	.	16G#JJ	16g#JJ 16gg#
=231	=231	=231	=231	=231
4T	4i	8D	16ALL	16aLL 16aa
.	.	.	16B-	16b- 16bb-
.	.	8r	16B	16b 16bb
.	.	.	16cJJ	16ccJJ 16ccc
4T	4ib	8F	16c#LL	16cc#LL 16ccc#
.	.	.	16d	16dd 16ddd
.	.	8r	16e	16ee 16eee
.	.	.	16fJJ	16ffJJ 16fff
=232	=232	=232	=232	=232
2D	2V	8A	8e'L	8ee'L 8eee'
.	.	8r	8c#'J	8cc#'J 8ccc#'
.	.	4r	8A'	8a' 8aa'
.	.	.	8r	8r
*	*	*v	*v	*
*-	*-	*-	*-
!!!COM: Beethoven
!!!OTL: 24 Variationen uber Venni Amore von V. Righini
!!!Variation: Variation 13 b
**function	**harm	**kern	**kern
*	*	*clefF4	*clefG2
*	*	*k[b-]	*k[b-]
*M2/4	*M2/4	*M2/4	*M2/4
*d:	*d:	*d:	*d:
=233	=233	=233	=233
2D	2V7m9	16r	[4E [4G [4c#
.	.	(16AAALL 16AA	.
.	.	16BBB- 16BB-	.
.	.	16GGG#JJ 16GG#	.
.	.	4AAA) 4AA	16ELL] 16G] 16c#]
.	.	.	(16g
.	.	.	16e
.	.	.	16c#JJ)
=234	=234	=234	=234
2D	2ic	16r	[4F [4A [4d
.	.	(16AAALL 16AA	.
.	.	16BBB- 16BB-	.
.	.	16GGG#JJ 16GG#	.
.	.	[4AAA) [4AA	16FLL] 16A] 16d]
.	.	.	(16a
.	.	.	16f
.	.	.	16dJJ)
=235	=235	=235	=235
2D	2V	16AAA] 16AA]	16c#LL
.	.	16A'LL	16a' 16aa'
.	.	16B'	16b' 16bb'
.	.	16c#'JJ	16cc#'JJ 16ccc#'
*	*	*^	*
.	.	8A	(16dLL	(16ddLL 16ddd
.	.	.	16c#)	16cc#) 16ccc#
.	.	8r	16d'	16dd' 16ddd'
.	.	.	16e'JJ	16ee'JJ 16eee'
=236	=236	=236	=236	=236
2D	2i	8D	8d	16ffLL 16fff
.	.	.	.	(16ff
*	*	*v	*v	*
.	.	8r	16dd
.	.	.	16aJJ)
.	.	16r	16fLL
.	.	(16ALL	(16a
.	.	16F	16f
.	.	16DJJ)	16dJJ)
=237	=237	=237	=237
2D	2V7m9	16r	[4E [4G [4c#
.	.	(16AAALL 16AA	.
.	.	16BBB- 16BB-	.
.	.	16GGG#JJ 16GG#	.
.	.	4AAA) 4AA	16ELL] 16G] 16c#]
.	.	.	(16g
.	.	.	16e
.	.	.	16c#JJ)
=238	=238	=238	=238
2D	2ic	16r	[4F [4A [4d
.	.	(16AAALL 16AA	.
.	.	16BBB- 16BB-	.
.	.	16GGG#JJ 16GG#	.
.	.	[4AAA) [4AA	16FLL] 16A] 16d]
.	.	.	(16a
.	.	.	16f
.	.	.	16dJJ)
=239	=239	=239	=239
2D	2V	16AAA] 16AA]	16c#LL
.	.	16A'LL	16a' 16aa'
.	.	16B'	16b' 16bb'
.	.	16cn'JJ	16cc'JJ 16ccc'
*	*	*^	*
.	.	8A	(16c#LL	(16cc#LL 16ccc#
.	.	.	16d)	16dd) 16ddd
.	.	8r	16e'	16ee' 16eee'
.	.	.	16c#'JJ	16cc#'JJ 16ccc#'
=240	=240	=240	=240	=240
2T	2i	8D	8d	16ddLL 16ddd
.	.	.	.	(16dd
*	*	*v	*v	*
.	.	16r	16a
.	.	(16D	16fJJ
.	.	16AALL	8d)
.	.	16FFJ	.
.	.	8DDJ)	8r
*-	*-	*-	*-
!!!COM: Beethoven
!!!OTL: 24 Variationen uber Venni Amore von V. Righini
!!!Variation: Variation 14 a
**function	**harm	**kern	**kern
*	*	*clefF4	*clefF4
*	*	*k[f#c#]	*k[f#c#]
*M2/4	*M2/4	*M2/4	*M2/4
*D:	*D:	*D:	*D:
=241	=241	=241	=241
4T	4I	8DD'L	8A 8f#
.	.	8AA'J	8r
4T	4viio	8BB'L	8G 8e
.	.	8C#'J	8r
=242	=242	=242	=242
*	*	*	*^
2T	2I	8D'L	4F#	4..d
.	.	8DD'J	.	.
.	.	8EE'L	4A	.
.	.	8FF#'J	.	.
.	.	.	.	16c#
*	*	*	*v	*v
=243	=243	=243	=243
2T	2IV	8GGL	8G 8B
.	.	8GGGJ	8r
.	.	8BBBL	8D 8G 8B
.	.	8CC#J	8r
=244	=244	=244	=244
2T	2I	8DD	8D 8F# 8A
.	.	8r	8r
.	.	4r	4r
*	*	*	*clefG2
=245	=245	=245	=245
*M3/8	*M3/8	*M3/8	*M3/8
4T	4I	8d	8a 8ff#
.	.	8r	8r
8T	8viioD7/vi	(8A# 8c#	(8g 8ee
=246	=246	=246	=246
4T	4vi	8B) 8d	8f#) 8dd
.	.	8r	8r
8T	8viioD7b/ii	(8F# 8A 8d#	(8cc 8ccc
=247	=247	=247	=247
4P	4iib	8G) 8B 8e	8b) 8bb
.	.	8r	8r
*	*	*clefG2	*
8D	8viiob	(8e 8g	(8cc# 8bb
=248	=248	=248	=248
4.T	4.Ib	8f#) 8a	8dd) 8aa
.	.	8r	8r
.	.	8r	8r
*-	*-	*-	*-
!!!COM: Beethoven
!!!OTL: 24 Variationen uber Venni Amore von V. Righini
!!!Variation: Variation 14 a2
**function	**harm	**kern	**kern
*	*	*clefF4	*clefF4
*	*	*k[f#c#]	*k[f#c#]
*M2/4	*M2/4	*M2/4	*M2/4
*D:	*D:	*D:	*D:
=249	=249	=249	=249
2T	2I	8DD'L	4D 4F#
.	.	8D'J	.
.	.	8C#'L	(8.DL 8.F#
.	.	8BB'J	.
.	.	.	16GJk)
=250	=250	=250	=250
2T	2V	8AA'L	4.C# 4.E 4.A
.	.	8GG'J	.
.	.	8FF#'L	.
.	.	8EE'J	(16BLL
.	.	.	16c#JJ)
=251	=251	=251	=251
4T	4I	8DDL 8D	8F#L 8d
.	.	8CC#J 8C#	8F#J 8d
8P	8IVb	4BBB 4BB	8F#L 8d
8P	8V7c/V	.	8G#J 8d 8e
=252	=252	=252	=252
*	*	*	*^
2D	2V	2AAA; 2AA;	2A; 2e;	(4d
.	.	.	.	4c#);
*	*	*	*v	*v
*	*	*	*clefG2
=253	=253	=253	=253
*M3/8	*M3/8	*M3/8	*M3/8
4.T	4.I	8.d 8.f#	8.a 8.dd 8.ff#
.	.	16r	32r
.	.	.	32ff#LLK
.	.	8r	16.gg
.	.	.	32gg#JJk
=254	=254	=254	=254
4.T	4.V7d	8.G 8.A 8.c# 8.e	8.a 8.cc# 8.ee 8.aa
.	.	16r	32r
.	.	.	32bb-LLK
.	.	8r	16.bb
.	.	.	32ccc#JJk
=255	=255	=255	=255
8T	8Ib	8F#L 8A 8d 8f#	16dddLK
.	.	.	8ddd
*	*	*clefG2	*
8T	8V/ii	8B 8f#	.
.	.	.	8ddd#
8P	8V7c/V	8BJ 8d 8e 8g#	.
.	.	.	[16eeeJk
=256	=256	=256	=256
4.D	4.V	4.A; 4.c#; 4.e; 4.a;	(32eeeLLL]
.	.	.	32ccc#
.	.	.	32bb
.	.	.	32aaJJJ)
.	.	.	q8gg#
.	.	.	q8aa
.	.	.	4aa;
.	.	.	q8gg#
.	.	.	q4bb
.	.	.	q8aa
.	.	.	q8gg#
.	.	.	q8aa
.	.	.	q4a
*-	*-	*-	*-
!!!COM: Beethoven
!!!OTL: 24 Variationen uber Venni Amore von V. Righini
!!!Variation: Variation 14 b
**function	**harm	**kern	**kern
*	*	*clefF4	*clefF4
*	*	*k[f#c#]	*k[f#c#]
*M2/4	*M2/4	*M2/4	*M2/4
*D:	*D:	*D:	*D:
=257	=257	=257	=257
*	*	*	*^
2D	2V	8AAA'L	4C#	(4E
.	.	8BB'J	.	.
.	.	8AA'L	8r	8F#L)
.	.	8GG'J	8E	8GJ
=258	=258	=258	=258	=258
2D	2I	8FF#'L	8D'L	4.A
.	.	8EE'J	8E'J	.
.	.	8DD'	8F#'	.
.	.	8r	8r	(16BLL
.	.	.	.	16c#JJ)
=259	=259	=259	=259	=259
2D	2V7	8AAA 8AA	8E 8G	8dL
.	.	8r	8r	8c#J
.	.	8AAA 8AA	8E 8G	8BL
.	.	8r	8r	8c#J
=260	=260	=260	=260	=260
2D	2I	8DD	8D 8F#	(4d
.	.	8r	8r	.
.	.	4r	4r	8A)
.	.	.	.	8r
*	*	*	*v	*v
*	*	*	*clefG2
=261	=261	=261	=261
*M3/8	*M3/8	*M3/8	*M3/8
4.D	4.V7d	8.G 8.A 8.c# 8.e	8.a 8.cc# 8.ee
.	.	16r	32r
.	.	.	32ff#LLK
.	.	8r	16.gg
.	.	.	32gg#JJk
=262	=262	=262	=262
4.D	4.Ib	8.F# 8.A 8.d 8.f#	8.a 8.dd 8.ff# 8.aa
.	.	16r	32r
.	.	.	32bbLLK
.	.	8r	16.ccc#
.	.	.	32dddJJk
*	*	*clefG2	*
=263	=263	=263	=263
4.D	4.V7	8.A 8.e 8.g	8.eeL 8.gg 8.ddd
.	.	16r	(16ccc#L
.	.	8g 8a 8cc# 8ee	16bb
.	.	.	16ccc#JJ)
=264	=264	=264	=264
4.T	4.Ib	4f# 4a 4dd	[8dddL
.	.	.	32dddLL]
.	.	.	(64ccc#L
.	.	.	64ddd
.	.	.	64eee
.	.	.	64ddd
.	.	.	64ccc#
.	.	.	64bbJJ
.	.	8r	16aaJJ)
.	.	.	16r
*-	*-	*-	*-
!!!COM: Beethoven
!!!OTL: 24 Variationen uber Venni Amore von V. Righini
!!!Variation: Variation 14 b2
**function	**harm	**kern	**kern
*	*	*clefF4	*clefF4
*	*	*k[f#c#]	*k[f#c#]
*M2/4	*M2/4	*M2/4	*M2/4
*D:	*D:	*D:	*D:
=265	=265	=265	=265
*	*	*	*^
2D	2V	8AAA'L	4C#	(4E
.	.	8BB'J	.	.
.	.	8AA'L	8r	8F#'L)
.	.	8GG'J	8E	8G'J
=266	=266	=266	=266	=266
2D	2I	8FF#'L	8D'L	4.A
.	.	8EE'J	8E'J	.
.	.	8DD'	8F#'	.
.	.	8r	8r	(16BLL
.	.	.	.	16c#JJ)
=267	=267	=267	=267	=267
2D	2V7	8AAA 8AA	8E 8G	8d'L
.	.	8r	8r	8e'J
.	.	8AAA 8AA	8E 8G	8d'L
.	.	8r	8r	8c#'J
=268	=268	=268	=268	=268
2D	2I	8DD	8F# 8A	8d
*	*	*	*v	*v
.	.	8r	8r
.	.	4r	4r
*	*	*	*clefG2
=269	=269	=269	=269
*M3/8	*M3/8	*M3/8	*M3/8
4.D	4.V7d	8.G 8.A 8.c# 8.e	8.a 8.cc# 8.ee
.	.	16r	32r
.	.	.	32ff#LLK
.	.	8r	16.gg
.	.	.	32gg#JJk
=270	=270	=270	=270
4.D	4.Ib	8.F# 8.A 8.d 8.f#	8.a 8.dd 8.ff# 8.aa
.	.	16r	32r
.	.	.	32bbLLK
.	.	8r	16.ccc#
.	.	.	32dddJJk
=271	=271	=271	=271
*	*	*clefG2	*
*	*	*	*^
4.D	4.V7	4.A; 4.c#; 4.e; 4.g;	4.ee; 4.gg;	16.dddLL
.	.	.	.	32ccc#JJk
.	.	.	.	4ccc#
.	.	.	.	q16bb
.	.	.	.	q16ccc#
*	*	*	*v	*v
=272	=272	=272	=272
*	*	*^	*
4.T	4.I	4d 4a	(8cc#	(8ggL 8eee
.	.	.	8dd)	8ff#J) 8ddd
*	*	*v	*v	*
.	.	8r	8r
*-	*-	*-	*-
!!!COM: Beethoven
!!!OTL: 24 Variationen uber Venni Amore von V. Righini
!!!Variation: Variation 15 a
**function	**harm	**kern	**kern
*	*	*clefF4	*clefG2
*	*	*k[f#c#]	*k[f#c#]
*M2/4	*M2/4	*M2/4	*M2/4
*D:	*D:	*D:	*D:
=273	=273	=273	=273
2T	2I	24aLL	4r
.	.	24f#	.
.	.	24aJ	.
.	.	24gL	.
.	.	24e	.
.	.	24gJJ	.
.	.	24f#LL	4dd 4ddd
.	.	24d	.
.	.	24f#J	.
.	.	24eL	.
.	.	24c#	.
.	.	24eJJ	.
=274	=274	=274	=274
4T	4vi	24dLL	4r
.	.	24B	.
.	.	24dJ	.
.	.	24c#L	.
.	.	24A	.
.	.	24c#JJ	.
.	.	.	(q8c# cc#
4T	4IV	24BLL	4d) 4dd
.	.	24G	.
.	.	24BJ	.
.	.	24A#L	.
.	.	24F#	.
.	.	24A#JJ	.
=275	=275	=275	=275
2T	2IV	24BLL	4r
.	.	24G	.
.	.	24BJ	.
.	.	24GL	.
.	.	24D	.
.	.	24GJJ	.
.	.	24DLL	4dd 4ddd
.	.	24BB	.
.	.	24DJ	.
.	.	24BBL	.
.	.	24GG	.
.	.	24BBJJ	.
=276	=276	=276	=276
2T	2I	24AALL	4r
.	.	24FF#	.
.	.	24AAJ	.
.	.	24GG#L	.
.	.	24EE#	.
.	.	24GG#JJ	.
.	.	.	(q8c# cc#
.	.	24AALL	[4d) [4dd
.	.	24FF#	.
.	.	24AAJ	.
.	.	24GGL	.
.	.	24EE	.
.	.	24GGJJ	.
=277	=277	=277	=277
2T	2I	8FF#L	24dLL] 24dd]
.	.	.	24d
.	.	.	24eJ
.	.	(8AAJ	24f#L
.	.	.	24g
.	.	.	24aJJ
.	.	8FF#L	24bLL
.	.	.	24cc#
.	.	.	24ddJ
.	.	8DDJ)	24eeL
.	.	.	24ff
.	.	.	24ff#JJ
=278	=278	=278	=278
2T	2V7b	8CC#L	24ggLL
.	.	.	24a
.	.	.	24bJ
.	.	(8EJ	24cc#L
.	.	.	24dd
.	.	.	24eeJJ
.	.	8C#L	24ff#LL
.	.	.	24gg
.	.	.	24aaJ
.	.	8GGJ)	24bbL
.	.	.	24ccc
.	.	.	24ccc#JJ
=279	=279	=279	=279
2T	2Ib	8FF#L	24dddLL
.	.	.	24aa
.	.	.	24ggJ
.	.	(8AJ	24ff#L
.	.	.	24ee
.	.	.	24ddJJ
.	.	8F#L	24cc#LL
.	.	.	24dd
.	.	.	24aJ
.	.	8DJ)	24f#L
.	.	.	24e
.	.	.	24dJJ
=280	=280	=280	=280
2D	2V	8AA	24c#LL
.	.	.	24d
.	.	.	24eJ
.	.	8r	24f#L
.	.	.	24g#
.	.	.	24aJJ
.	.	4r	8A
.	.	.	8r
*-	*-	*-	*-
!!!COM: Beethoven
!!!OTL: 24 Variationen uber Venni Amore von V. Righini
!!!Variation: Variation 15 b
**function	**harm	**kern	**kern
*	*	*clefF4	*clefG2
*	*	*k[f#c#]	*k[f#c#]
*M2/4	*M2/4	*M2/4	*M2/4
*D:	*D:	*D:	*D:
=281	=281	=281	=281
2T	2V7b	24gLL	4r
.	.	24e	.
.	.	24gJ	.
.	.	24f#L	.
.	.	24d#	.
.	.	24f#JJ	.
.	.	24gLL	4a 4aa
.	.	24e	.
.	.	24gJ	.
.	.	24eL	.
.	.	24c#	.
.	.	24eJJ	.
=282	=282	=282	=282
2T	2I	24f#LL	4r
.	.	24d	.
.	.	24f#J	.
.	.	24dL	.
.	.	24A	.
.	.	24dJJ	.
.	.	.	(q8cc# ccc#
.	.	24ALL	8dd) 8ddd
.	.	24F#	.
.	.	24AJ	.
.	.	24F#L	8r
.	.	24D	.
.	.	24F#JJ	.
=283	=283	=283	=283
2T	2V7b	24GLL	4r
.	.	24E	.
.	.	24GJ	.
.	.	24F#L	.
.	.	24D#	.
.	.	24F#JJ	.
.	.	24GLL	4A 4a
.	.	24E	.
.	.	24GJ	.
.	.	24EL	.
.	.	24C#	.
.	.	24EJJ	.
=284	=284	=284	=284
2T	2I	24F#LL	4r
.	.	24D	.
.	.	24F#J	.
.	.	24DL	.
.	.	24AA	.
.	.	24DJJ	.
.	.	.	(q8c# cc#
.	.	24AALL	8d) 8dd
.	.	24FF#	.
.	.	24AAJ	.
.	.	24FF#L	8r
.	.	24DD	.
.	.	24FF#JJ	.
=285	=285	=285	=285
2T	2V7b	8CC#L	24r
.	.	.	(24ALL
.	.	.	24BJ
.	.	(8EJ	32c#LL
.	.	.	32d
.	.	.	32e
.	.	.	32f#JJJ)
.	.	8C#L	24gLL
.	.	.	24a
.	.	.	24bJ
.	.	8GGJ)	24cc#L
.	.	.	24b
.	.	.	24aJJ
=286	=286	=286	=286
2T	2Ib	8FF#L	(24ddLL
.	.	.	24d
.	.	.	24eJ
.	.	(8AJ	32f#LL
.	.	.	32g
.	.	.	32a
.	.	.	32bJJJ)
.	.	8F#L	24cc#LL
.	.	.	24dd
.	.	.	24eeJ
.	.	8DJ)	24ff#L
.	.	.	24ee
.	.	.	24ddJJ
=287	=287	=287	=287
2D	2V7	(24C#LL	8gg
.	.	24AA	.
.	.	24BBJ	.
.	.	32C#LL	8r
.	.	32D	.
.	.	32E	.
.	.	32F#JJJ)	.
.	.	24GLL	4gg 4aa 4eee
.	.	24A	.
.	.	24BJ	.
.	.	24c#L	.
.	.	24B	.
.	.	24AJJ	.
=288	=288	=288	=288
2T	2I	24dLL	8ff# 8aa 8ddd
.	.	24A	.
.	.	24F#J	.
.	.	24DL	8r
.	.	24AA	.
.	.	24FF#JJ	.
.	.	8DD	24r
.	.	.	24ddLL
.	.	.	24cc#J
.	.	8r	24ddL
.	.	.	24ee
.	.	.	24ff#JJ
*-	*-	*-	*-
!!!COM: Beethoven
!!!OTL: 24 Variationen uber Venni Amore von V. Righini
!!!Variation: Variation 15 b2
**function	**harm	**kern	**kern
*	*	*clefF4	*clefG2
*	*	*k[f#c#]	*k[f#c#]
*M2/4	*M2/4	*M2/4	*M2/4
*D:	*D:	*D:	*D:
=289	=289	=289	=289
2D	2V7	4r	24ggLL
.	.	.	24ee
.	.	.	24ggJ
.	.	.	24ff#L
.	.	.	24dd#
.	.	.	24ff#JJ
.	.	4AA 4A	24ggLL
.	.	.	24ee
.	.	.	24ggJ
.	.	.	24eeL
.	.	.	24cc#
.	.	.	24eeJJ
=290	=290	=290	=290
2D	2I	4r	24ff#LL
.	.	.	24dd
.	.	.	24ff#J
.	.	.	24ddL
.	.	.	24a
.	.	.	24ddJJ
.	.	(q8C# c#	.
.	.	8D) 8d	24aLL
.	.	.	24f#
.	.	.	24aJ
.	.	8r	24f#L
.	.	.	24d
.	.	.	24f#JJ
=291	=291	=291	=291
2D	2V7	4r	24gLL
.	.	.	24e
.	.	.	24gJ
.	.	.	24f#L
.	.	.	24d#
.	.	.	24f#JJ
.	.	4AAA 4AA	24gLL
.	.	.	24e
.	.	.	24gJ
.	.	.	24eL
.	.	.	24c#
.	.	.	24eJJ
=292	=292	=292	=292
2D	2I	4r	24f#LL
.	.	.	24d
.	.	.	24f#J
.	.	.	24dL
.	.	.	24A
.	.	.	24dJJ
.	.	(q8CC# C#	.
.	.	8DD) 8D	24ALL
.	.	.	24F#
.	.	.	24AJ
.	.	8r	24F#L
.	.	.	24D
.	.	.	24F#JJ
=293	=293	=293	=293
2D	2V7	24r	8C#L 8G
.	.	(24AAALL	.
.	.	24BBBJ	.
.	.	32CC#LL	(8eeJ
.	.	32DD	.
.	.	32EE	.
.	.	32FF#JJJ)	.
.	.	24GGLL	8cc#L
.	.	24AA	.
.	.	24BBJ	.
.	.	24C#L	8gJ)
.	.	24BB	.
.	.	24AAJJ	.
=294	=294	=294	=294
2T	2I	(24DLL	8f#L
.	.	24DD	.
.	.	24EEJ	.
.	.	32FF#LL	(8aaJ
.	.	32GG	.
.	.	32AA	.
.	.	32BBJJJ)	.
.	.	24C#LL	8ff#L
.	.	24D	.
.	.	24EJ	.
.	.	24F#L	8ddJ)
.	.	24E	.
.	.	24DJJ	.
=295	=295	=295	=295
4P	4IV	8G	(24cc#LL
.	.	.	24a
.	.	.	24bJ
.	.	8r	32cc#LL
.	.	.	32dd
.	.	.	32ee
.	.	.	32ff#JJJ)
*	*	*^	*
4D	4V7	(4AA 4E	(4G	24ggLL
.	.	.	.	24aa
.	.	.	.	24bbJ
.	.	.	.	24ccc#L
.	.	.	.	24bb
.	.	.	.	24aaJJ
=296	=296	=296	=296	=296
2T	2I	8D)	8F#)	24dddLL
.	.	.	.	24aa
.	.	.	.	24ff#J
*	*	*v	*v	*
.	.	8r	24ddL
.	.	.	24a
.	.	.	24f#JJ
.	.	4r	8d
.	.	.	8r
*-	*-	*-	*-
!!!COM: Beethoven
!!!OTL: 24 Variationen uber Venni Amore von V. Righini
!!!Variation: Variation 16 a
**function	**harm	**kern	**kern
*	*	*clefF4	*clefG2
*	*	*k[f#c#]	*k[f#c#]
*M2/4	*M2/4	*M2/4	*M2/4
*D:	*D:	*D:	*D:
=297	=297	=297	=297
4T	4I	8r	(16ALL
.	.	.	16F#
.	.	4DD 4D	16f#
.	.	.	16dJJ
4T	4V7	.	16GLL
.	.	.	16g
.	.	[8AA [8A	16e
.	.	.	16c#JJ)
=298	=298	=298	=298
4T	4vi	8AA] 8A]	(16ff#LL
.	.	.	16dd
.	.	4BB 4B	16ddd
.	.	.	16ff#JJ
4T	4I7b	.	16ddLL
.	.	.	16ccc#
.	.	[8FF# [8F#	16aa
.	.	.	16ddJJ)
=299	=299	=299	=299
8T	8Ib	8FF#] 8F#]	(16aLL
.	.	.	16d
4.T	4.IV	4GG 4G	16B
.	.	.	16bJJ
.	.	.	16gLL
.	.	.	16d
.	.	[8BB [8B	16dd
.	.	.	16bJJ)
=300	=300	=300	=300
8T	8IV	8BB] 8B]	(16ggLL
.	.	.	16dd
4.T	4.I	4D 4d	16a
.	.	.	16aaJJ
.	.	.	16ff#LL
.	.	.	16dd
.	.	8DD 8D	16ddd
.	.	.	16aaJJ)
=301	=301	=301	=301
2T	2I	8r	24eLL
.	.	.	24d
.	.	.	24f#J
.	.	4AA 4A	8A'J
.	.	.	24eeLL
.	.	.	24dd
.	.	.	24ff#J
.	.	[8DD [8D	8a'J
=302	=302	=302	=302
2T	2V7b	8DD] 8D]	24f#LL
.	.	.	24e
.	.	.	24gJ
.	.	4CC# 4C#	8A'J
.	.	.	24ff#LL
.	.	.	24ee
.	.	.	24ggJ
.	.	[8AA [8A	8a'J
=303	=303	=303	=303
2T	2I	8AA] 8A]	24ggLL
.	.	.	24ff#
.	.	.	24aaJ
.	.	4DD 4D	8dd'J
.	.	.	24gLL
.	.	.	24f#
.	.	.	24aJ
.	.	[8FF# [8F#	8d'J
=304	=304	=304	=304
2D	2V	8FF#L] 8F#]	24dLL
.	.	.	24c#
.	.	.	24eJ
*	*	*	*clefF4
.	.	8AAJ	24AL
.	.	.	24E
.	.	.	24C#JJ
.	.	8AAA	4r
.	.	8r	.
*-	*-	*-	*-
!!!COM: Beethoven
!!!OTL: 24 Variationen uber Venni Amore von V. Righini
!!!Variation: Variation 16 b
**function	**harm	**kern	**kern
*	*	*clefF4	*clefG2
*	*	*k[f#c#]	*k[f#c#]
*M2/4	*M2/4	*M2/4	*M2/4
*D:	*D:	*D:	*D:
=305	=305	=305	=305
2D	2V7	8r	(16c#LL
.	.	.	16e
.	.	4AAA 4AA	16A
.	.	.	16c#JJ
.	.	.	16eLL
.	.	.	16c#
.	.	[8GG [8G	16b
.	.	.	16aJJ)
=306	=306	=306	=306
2D	2Ic	8GG] 8G]	(16ddLL
.	.	.	16ff#
.	.	4FF# 4F#	16a
.	.	.	16ddJJ
.	.	.	16ff#LL
.	.	.	16dd
.	.	[8AAA [8AA	16bb
.	.	.	16aaJJ)
=307	=307	=307	=307
2D	2V7	8AAA] 8AA]	(16gLL
.	.	.	16e
.	.	4CC# 4C#	16c#
.	.	.	16AJJ
.	.	.	16gLL
.	.	.	16e
.	.	[8AAA [8AA	16b
.	.	.	16aJJ)
=308	=308	=308	=308
2D	2Ic	8AAA] 8AA]	(16dddLL
.	.	.	16aa
.	.	4DD 4D	16ff#
.	.	.	16ddJJ
.	.	.	16aaLL
.	.	.	16ff#
.	.	[8AAA [8AA	16eee
.	.	.	16dddJJ)
=309	=309	=309	=309
2D	2V7	8AAA] 8AA]	24ff#LL
.	.	.	24ee
.	.	.	24ggJ
.	.	4EE 4E	8cc#'J
.	.	.	24f#LL
.	.	.	24e
.	.	.	24gJ
.	.	[8GG [8G	8c#'J
=310	=310	=310	=310
4T	4Ib	8GG] 8G]	24bbLL
.	.	.	24aa
.	.	.	24dddJ
.	.	4FF# 4F#	8ff#'J
4T	4V7d/ii	.	24gLL
.	.	.	24f#
.	.	.	24bJ
.	.	[8AA [8A	8d#'J
=311	=311	=311	=311
4P	4iib	8AA] 8A]	24ff#LL
.	.	.	24ee
.	.	.	24ggJ
.	.	4GG 4G	8b'J
4P	4V7	.	24f#LL
.	.	.	24e
.	.	.	24gJ
.	.	[8AA [8A	8c#'J
=312	=312	=312	=312
2T	2I	8AAL] 8A]	24dLL
.	.	.	24f#
.	.	.	24aJ
.	.	8DJ	24ddL
.	.	.	24ff#
.	.	.	24aaJJ
.	.	8DD	8ddd
.	.	8r	8r
*-	*-	*-	*-
!!!COM: Beethoven
!!!OTL: 24 Variationen uber Venni Amore von V. Righini
!!!Variation: Variation 17 a
**function	**harm	**kern	**kern
*	*	*clefF4	*clefG2
*	*	*k[f#c#]	*k[f#c#]
*M2/4	*M2/4	*M2/4	*M2/4
*D:	*D:	*D:	*D:
=313	=313	=313	=313
*	*	*^	*^
4T	4I	[2D	4A	4a	4ff#
4T	4V7	.	4c#	4g	4ee
=314	=314	=314	=314	=314	=314
4T	4I	2D]	4d	4f#	4.dd
4T	4viioD7/ii	.	4F# 4A 4c	4d# 4a	.
.	.	.	.	.	8cc
=315	=315	=315	=315	=315	=315
4T	4ii7d	[2D	4G 4B	4e 4g	4b
4T	4viiom7	.	4E 4G	(4c# 4g	(4b
=316	=316	=316	=316	=316	=316
2T	2I	2D]	4F# 4A	4d)	4.a)
*	*	*	*	*v	*v
.	.	.	4A	.
.	.	.	.	8g
=317	=317	=317	=317	=317
2T	2viioD7/ii	[2D	4A 4c	4d# 4f#
.	.	.	(4A 4c	(4d# 4f#
=318	=318	=318	=318	=318
4T	4ii7d	4D]	4G) 4B	4e) 4g
4T	4ii7d	[4D	(4E 4B-	(4c# 4g
=319	=319	=319	=319	=319
4T	4I	4D]	4F#) 4A	4d) 4f#
*	*	*v	*v	*
4P	4viioD7c/V	(4DD 4D	(4G# 4B 4f#
=320	=320	=320	=320
2D	2V	2AAA;) 2AA;	2A;) 2c#; 2e;
*-	*-	*-	*-
!!!COM: Beethoven
!!!OTL: 24 Variationen uber Venni Amore von V. Righini
!!!Variation: Variation 17 b
**function	**harm	**kern	**kern
*	*	*clefF4	*clefG2
*	*	*k[f#c#]	*k[f#c#]
*M2/4	*M2/4	*M2/4	*M2/4
*D:	*D:	*D:	*D:
=321	=321	=321	=321
*	*	*^	*
2D	2V9	[2AA	4r	8c# 8e
.	.	.	.	8r
.	.	.	(4G^	(4c# 4b
=322	=322	=322	=322	=322
2D	2Ic	2AA]	8F#)	8d) 8a
.	.	.	8r	8r
.	.	.	(4D	(4f# 4dd
=323	=323	=323	=323	=323
2D	2V7m9	[2AA	8E)	8g) 8cc#
.	.	.	8r	8r
.	.	.	(4G	(4cc# 4bb-
=324	=324	=324	=324	=324
2D	2Ic	2AA]	8F#)	8dd) 8aa
.	.	.	8r	8r
.	.	.	(4D	(4ff# 4ddd
=325	=325	=325	=325	=325
2D	2V7m9	[2AA	8E)	8gg) 8ccc#
.	.	.	8r	8r
*	*	*	*	*clefF4
.	.	.	(4G	(4B- 4c#
=326	=326	=326	=326	=326
2D	2Ic	8AA]	8F#)	8A) 8d
*	*	*v	*v	*
.	.	8r	8r
.	.	4r;	4r;
=327	=327	=327	=327
4D	4Ic	4AAA 4AA	(4D' 4F#' 4A'
4D	4V7	4AAA 4AA	4C#') 4E' 4G' 4A'
=328	=328	=328	=328
2T	2I	2DD; 2AA;	2D; 2F#; 2A;
*-	*-	*-	*-
!!!COM: Beethoven
!!!OTL: 24 Variationen uber Venni Amore von V. Righini
!!!Variation: Variation 18 a
**function	**harm	**kern	**kern
*	*	*clefF4	*clefG2
*	*	*k[f#c#]	*k[f#c#]
*M2/4	*M2/4	*M2/4	*M2/4
*D:	*D:	*D:	*D:
=329	=329	=329	=329
4T	4I	12r	(4a 4ff#
.	.	(12DDL	.
.	.	12FF#'J)	.
4T	4V7	12r	4g 4ee
.	.	(12AAL	.
.	.	12C#'J)	.
=330	=330	=330	=330
4T	4I	12r	8f#') 8dd'
.	.	(12DL	.
.	.	.	8r
.	.	12F#J)	.
4T	4V7/IV	8A'	12r
.	.	.	(12dL
.	.	8r	.
.	.	.	12cc'J)
=331	=331	=331	=331
2T	2IV	8G' 8d'	12r
.	.	.	(12bL
.	.	8r	.
.	.	.	12dd'J)
.	.	8G' 8B' 8d'	12r
.	.	.	(12ggL
.	.	8r	.
.	.	.	12bb'J)
=332	=332	=332	=332
2T	2I	8D'L 8d'	12r
.	.	.	(12ff#L
.	.	8D'J 8d'	.
.	.	.	12aa'J)
.	.	4r	8a'L 8aa'
.	.	.	8a'J 8aa'
=333	=333	=333	=333
*	*	*	*^
2T	2I	12r	2A	(4d 4f#
.	.	(12DDL	.	.
.	.	12AA'J)	.	.
.	.	12r	.	4f# 4a
.	.	(12DL	.	.
.	.	12AA'J)	.	.
=334	=334	=334	=334	=334
2T	2V7b	12r	4A	4e) 4g
.	.	(12C#L	.	.
.	.	12AA'J)	.	.
*	*	*	*v	*v
.	.	8CC#' 8AA'	12r
.	.	.	(12aL
.	.	8r	.
.	.	.	12gg'J)
=335	=335	=335	=335
4T	4I	8DD' 8AA'	12r
.	.	.	(12ff#L
.	.	8r	.
.	.	.	12dd'J)
4T	4Ib	8FF#' 8D'	12r
.	.	.	(12aaL
.	.	8r	.
.	.	.	12ff#'J)
=336	=336	=336	=336
2D	2V	8AA'L 8A'	12r
.	.	.	(12eeL
.	.	8AA'J 8A'	.
.	.	.	12cc#'J)
.	.	4r	8a'L 8aa'
.	.	.	8a'J 8aa'
*-	*-	*-	*-
!!!COM: Beethoven
!!!OTL: 24 Variationen uber Venni Amore von V. Righini
!!!Variation: Variation 18 b
**function	**harm	**kern	**kern
*	*	*clefF4	*clefG2
*	*	*k[f#c#]	*k[f#c#]
*M2/4	*M2/4	*M2/4	*M2/4
*D:	*D:	*D:	*D:
=337	=337	=337	=337
*	*	*	*^
4D	4V	12r	2A	(4c# 4e
.	.	(12AAL	.	.
.	.	12C#'J)	.	.
4D	4V7d	12r	.	4e 4a
.	.	(12GGL	.	.
.	.	12C#'J)	.	.
=338	=338	=338	=338	=338
4D	4Ib	12r	4A	4d) 4f#
.	.	(12FF#L	.	.
.	.	12D'J)	.	.
*	*	*	*v	*v
4D	4I	8DD' 8AA'	12r
.	.	.	(12ff#L
.	.	8r	.
.	.	.	12dd'J)
=339	=339	=339	=339
4D	4V7b	8CC#' 8AA'	12r
.	.	.	(12ggL
.	.	8r	.
.	.	.	12ee'J)
4D	4V7	8AAA' 8AA'	12r
.	.	.	(12gL
.	.	8r	.
.	.	.	12e'J)
=340	=340	=340	=340
2T	2I	8DD'L 8D'	12r
.	.	.	(12f#L
.	.	8DD'J 8D'	.
.	.	.	12d'J)
.	.	4r	8a'L 8aa'
.	.	.	8a'J 8aa'
=341	=341	=341	=341
*	*	*	*^
4D	4V	12r	2A	(4c# 4e
.	.	(12AAL	.	.
.	.	12C#'J)	.	.
4D	4V7d	12r	.	4e 4a
.	.	(12GGL	.	.
.	.	12C#'J)	.	.
=342	=342	=342	=342	=342
4D	4Ib	12r	4A	4d) 4f#
.	.	(12FF#L	.	.
.	.	12D'J)	.	.
*	*	*	*v	*v
4D	4I	8DD' 8AA'	12r
.	.	.	(12ff#L
.	.	8r	.
.	.	.	12dd'J)
=343	=343	=343	=343
4D	4V7b	8CC#' 8AA'	12r
.	.	.	(12ggL
.	.	8r	.
.	.	.	12ee'J)
4D	4V7	8AAA' 8AA'	12r
.	.	.	(12gL
.	.	8r	.
.	.	.	12e'J)
=344	=344	=344	=344
2T	2I	8DD'L 8D'	12r
.	.	.	(12dL
.	.	8DD'J 8D'	.
.	.	.	12f#'J)
.	.	4r	8dd'L 8ddd'
.	.	.	8dd'J 8ddd'
*-	*-	*-	*-
!!!COM: Beethoven
!!!OTL: 24 Variationen uber Venni Amore von V. Righini
!!!Variation: Variation 19 a
**function	**harm	**kern	**kern
*	*	*clefF4	*clefG2
*	*	*k[f#c#]	*k[f#c#]
*M6/8	*M6/8	*M6/8	*M6/8
*D:	*D:	*D:	*D:
=345	=345	=345	=345
2.T	2.I	4DD 4D	(8f#L 8ff#
.	.	.	8g 8gg
.	.	4r	8g#J 8gg#
.	.	.	8aL) 8aa
.	.	8r	8f#' 8ff#'
.	.	8AAA 8AA	8e'J 8ee'
=346	=346	=346	=346
2.T	2.vi	(8BBBL 8BB	[4.d [4.dd
.	.	8CC 8C	.
.	.	8CC#J 8C#	.
.	.	8DDL) 8D	4d] 4dd]
.	.	8BBB' 8BB'	.
.	.	8AAA'J 8AA'	([8dd [8ddd
=347	=347	=347	=347
2.T	2.IV	[4.GGG [4.GG	8ddL] 8ddd]
.	.	.	8cc# 8ccc#
.	.	.	8ddJ 8ddd
.	.	4GGG] 4GG]	8eeL) 8eee
.	.	.	8dd' 8ddd'
.	.	([8GG [8G	8b'J 8bb'
=348	=348	=348	=348
4.T	4.Ib	8GGL] 8G]	[4.a [4.aa
.	.	8FF# 8F#	.
.	.	8GGJ 8G	.
4.T	4.V7c	8AAL) 8A	4a] 4aa]
.	.	8GG' 8G'	.
.	.	8EE'J 8E'	([8a [8aa
=349	=349	=349	=349
2.T	2.I	[4.DD [4.D	8aL] 8aa]
.	.	.	8g 8gg
.	.	.	8f#J 8ff#
.	.	4DD] 4D]	8eL) 8ee
.	.	.	8d' 8dd'
.	.	([8DD [8D	8f#'J 8ff#'
=350	=350	=350	=350
2.T	2.V7	8DDL] 8D]	[4.g [4.gg
.	.	8CC# 8C#	.
.	.	8BBBJ 8BB	.
.	.	8AAAL) 8AA	4g] 4gg]
.	.	8BBB' 8BB'	.
.	.	8GGG'J 8GG'	8e 8ee
=351	=351	=351	=351
2.T	2.Ib	[4.FFF# [4.FF#	(8aL 8aa
.	.	.	8b 8bb
.	.	.	8cc#J 8ccc#
.	.	4FFF#] 4FF#]	8ddL) 8ddd
.	.	.	8ee' 8eee'
.	.	8GGG# 8GG#	8dd'J 8ddd'
=352	=352	=352	=352
2.D	2.V	(8AAAL 8AA	(8cc#L 8ccc#
.	.	8BBB 8BB	8b 8bb
.	.	8CC#J 8C#	8aJ) 8aa
.	.	8DDL) 8D	4r
.	.	8EE' 8E'	.
.	.	8CC#'J 8C#'	([8A [8a
*-	*-	*-	*-
!!!COM: Beethoven
!!!OTL: 24 Variationen uber Venni Amore von V. Righini
!!!Variation: Variation 19 b
**function	**harm	**kern	**kern
*	*	*clefF4	*clefG2
*	*	*k[f#c#]	*k[f#c#]
*M2/4	*M2/4	*M2/4	*M2/4
*D:	*D:	*D:	*D:
=353	=353	=353	=353
2.D	2.V7	([4.AAA [4.AA	8AL] 8a]
.	.	.	8G) 8g
.	.	.	8E'J 8e'
.	.	8AAAL] 8AA]	([4.g [4.gg
.	.	8DD) 8D	.
.	.	8CC#'J 8C#'	.
=354	=354	=354	=354
2.D	2.I	([4.DD [4.D	8gL] 8gg]
.	.	.	8f#) 8ff#
.	.	.	8d'J 8dd'
.	.	8DDL] 8D]	([4.dd [4.ddd
.	.	8GG) 8G	.
.	.	8FF#'J 8F#'	.
=355	=355	=355	=355
2.D	2.V7d	([4.GG [4.G	8ddL] 8ddd]
.	.	.	8dd#) 8ddd#
.	.	.	8ee'J 8eee'
.	.	8GGL] 8G]	([4.a [4.aa
.	.	8EE) 8E	.
.	.	8EE#'J 8E#'	.
=356	=356	=356	=356
4.D	4.Ib	8FF#' 8F#'	8aL] 8aa]
.	.	8r	8f#) 8ff#
.	.	8CC# 8C#	8e'J 8ee'
4.D	4.viio/V	8DD 8D	(8dL 8dd
.	.	8r	8c# 8cc#
.	.	8GGG# 8GG#	8BJ) 8b
=357	=357	=357	=357
2.D	2.V7	(8AAAL 8AA	([4.A [4.a
.	.	8GG)	.
.	.	8EE'J	.
.	.	([4.GG [4.G	8AL] 8a]
.	.	.	8d) 8dd
.	.	.	8c#'J 8cc#'
=358	=358	=358	=358
2.D	2.I	8GGL] 8G]	([4.d [4.dd
.	.	8FF#) 8F#	.
.	.	8DD'J 8D'	.
.	.	([4.D [4.d	8dL] 8dd]
.	.	.	8g) 8gg
.	.	.	8f#'J 8ff#'
=359	=359	=359	=359
2.D	2.V7	8DL] 8d]	([4.g [4.gg
.	.	8D# 8d#	.
.	.	8E'J) 8e'	.
.	.	[4.AA [4.A	8gL] 8gg]
.	.	.	8g#) 8gg#
.	.	.	8a'J 8aa'
=360	=360	=360	=360
2.T	2.I	8AAL] 8A]	4d 4dd
.	.	8FF#' 8F#'	.
.	.	8EE'J 8E'	4r
.	.	4DD' 4D'	.
.	.	.	8r
.	.	8r	8r
*-	*-	*-	*-
!!!COM: Beethoven
!!!OTL: 24 Variationen uber Venni Amore von V. Righini
!!!Variation: Variation 20 a
**function	**harm	**kern	**kern
*	*	*clefF4	*clefG2
*	*	*k[f#c#]	*k[f#c#]
*M2/4	*M2/4	*M2/4	*M2/4
*D:	*D:	*D:	*D:
=361	=361	=361	=361
4T	4I	8d' 8f#'	2r
.	.	8r	.
4T	4V	8A' 8e'	.
.	.	8r	.
=362	=362	=362	=362
2T	2Ib	8F#' 8d'	24r
.	.	.	24aaLL
.	.	.	24bb-J
.	.	8r	24bbL
.	.	.	24ccc
.	.	.	24ccc#JJ
.	.	8r	8ddd
.	.	16r	8r
.	.	16A' 16c#'	.
=363	=363	=363	=363
2T	2IV	8G' 8B'	2r
.	.	8r	.
.	.	8G' 8d'	.
.	.	8r	.
=364	=364	=364	=364
2T	2Ib	8F#' 8A'	24r
.	.	.	24dddLL
.	.	.	24ccc#J
.	.	8r	24cccL
.	.	.	24bb
.	.	.	24bb-JJ
.	.	8r	8aa
.	.	16r	8r
.	.	16E' 16G'	.
=365	=365	=365	=365
2T	2I	8D' 8F#'	2r
.	.	8r	.
.	.	8d' 8f#'	.
.	.	8r	.
=366	=366	=366	=366
2T	2V7b	8c#' 8g'	24r
.	.	.	24eeLL
.	.	.	24ffJ
.	.	8r	24ff#L
.	.	.	24gg
.	.	.	24gg#JJ
.	.	8r	8aa
.	.	16r	8r
.	.	16C#' 16G'	.
=367	=367	=367	=367
2T	2I	8D' 8F#'	2r
.	.	8r	.
.	.	8d' 8f#'	.
.	.	8r	.
=368	=368	=368	=368
2D	2V	8A' 8e'	24r
.	.	.	24aaLL
.	.	.	24gg#J
.	.	8r	24ggL
.	.	.	24ff#
.	.	.	24ffJJ
.	.	4r	8ee
.	.	.	8r
*-	*-	*-	*-
!!!COM: Beethoven
!!!OTL: 24 Variationen uber Venni Amore von V. Righini
!!!Variation: Variation 20 b
**function	**harm	**kern	**kern
*	*	*clefF4	*clefG2
*	*	*k[f#c#]	*k[f#c#]
*M2/4	*M2/4	*M2/4	*M2/4
*D:	*D:	*D:	*D:
=369	=369	=369	=369
2D	2V7	2r	8ee' 8gg'
.	.	.	8r
.	.	.	8a' 8ee'
.	.	.	8r
=370	=370	=370	=370
2D	2Ic	24r	8dd' 8ff#'
.	.	24dLL	.
.	.	24c#J	.
.	.	24cL	8r
.	.	24B	.
.	.	24B-JJ	.
.	.	8A	4r
.	.	8r	.
=371	=371	=371	=371
2D	2V7	2r	8e' 8g'
.	.	.	8r
.	.	.	8A' 8e'
.	.	.	8r
=372	=372	=372	=372
2D	2Ic	24r	8f#' 8a'
.	.	24AALL	.
.	.	24BB-J	.
.	.	24BBL	8r
.	.	24C	.
.	.	24C#JJ	.
.	.	8D	4r
.	.	8r	.
*	*	*	*clefF4
=373	=373	=373	=373
2D	2V7	2r	8E' 8G'
.	.	.	8r
.	.	.	8AA' 8E'
.	.	.	8r
=374	=374	=374	=374
2D	2Ic	24r	8D' 8F#'
.	.	24DDLL	.
.	.	24CC#J	.
.	.	24CCL	8r
.	.	24BBB	.
.	.	24BBB-JJ	.
.	.	8AAA	4r
.	.	8r	.
=375	=375	=375	=375
2D	2V7	8EE' 8GG'	2r
.	.	8r	.
.	.	8AAA' 8EE'	.
.	.	8r	.
*	*	*	*clefG2
=376	=376	=376	=376
2T	2I	8DD' 8FF#'	24r
.	.	.	24aaLL
.	.	.	24bb-J
.	.	8r	24bbL
.	.	.	24ccc
.	.	.	24ccc#JJ
.	.	4r	8ddd
.	.	.	8r
*-	*-	*-	*-
!!!COM: Beethoven
!!!OTL: 24 Variationen uber Venni Amore von V. Righini
!!!Variation: Variation 21 a
**function	**harm	**kern	**kern
*	*	*clefF4	*clefG2
*	*	*k[f#c#]	*k[f#c#]
*M2/4	*M2/4	*M2/4	*M2/4
*D:	*D:	*D:	*D:
*	*	*	*^
16T	16V7/vi	16r	16ff#	16f#
=377	=377	=377	=377	=377
*	*	*^	*	*
2T	2V7/vi	[2FF# [2F#	4r	[2f#	4ff#
.	.	.	4AA#	.	4cc# 4ee
=378	=378	=378	=378	=378	=378
4T	4i64/vi	2FF#_ 2F#_	4BB	4f#]	4b 4dd
4T	4V7/vi	.	4C#	4e	4a# 4cc#
=379	=379	=379	=379	=379	=379
4T	4i64/vi	4FF#_ 4F#]	4D	4d 4f#	4b
4T	4viioD7/V/vi	4FF#]	4E#	4d 4g#	8bL
.	.	.	.	.	8cc#J
*	*	*	*	*v	*v
=380	=380	=380	=380	=380
2T	2V/vi	2FF#	2F#	[4c# [4f# [4a#
.	.	.	.	8.c#L] 8.f#] 8.a#]
*	*	*	*	*^
.	.	.	.	16AJk 16d	16aJk
=381	=381	=381	=381	=381	=381
2T	2Ib	(2FF# [2AA	(2F#	4A 4d	[2a
.	.	.	.	16c#LL	.
.	.	.	.	16d	.
.	.	.	.	16e	.
.	.	.	.	16f#JJ	.
=382	=382	=382	=382	=382	=382
2T	2V7c	(2EE) 2AA_	2E	2g	4a]
.	.	.	.	.	16g#LL
.	.	.	.	.	16a
.	.	.	.	.	16b
.	.	.	.	.	16cc#JJ
*	*	*	*	*v	*v
=383	=383	=383	=383	=383
2T	2I	4DD) 4AA]	4D)	8f# 8dd
.	.	.	.	8r
*	*	*v	*v	*
.	.	(16DDLL	8A 8d 8f#
.	.	16EE	.
.	.	16FF#	8r
.	.	16GGJJ)	.
=384	=384	=384	=384
2D	2V	8AA'	8A' 8c#' 8e'
.	.	8r	8r
.	.	8AAA'	4r
.	.	8r	.
*-	*-	*-	*-
!!!COM: Beethoven
!!!OTL: 24 Variationen uber Venni Amore von V. Righini
!!!Variation: Variation 21 b
**function	**harm	**kern	**kern
*	*	*clefF4	*clefG2
*	*	*k[f#c#]	*k[f#c#]
*M2/4	*M2/4	*M2/4	*M2/4
*D:	*D:	*D:	*D:
=385	=385	=385	=385
2D	2V7	2r	(4a
.	.	.	[4gg)
=386	=386	=386	=386
2D	2I	(4D	(16ggLL]
.	.	.	16ff#
.	.	.	16ee
.	.	.	16ddJJ)
.	.	[4d)	4dd
=387	=387	=387	=387
*	*	*^	*
2D	2V7	(4AA	(16dLL]	2r
.	.	.	16c#	.
.	.	.	16B	.
.	.	.	16AJJ)	.
.	.	[4G)	4A	.
=388	=388	=388	=388	=388
2D	2Ib	(16GLL]	4FFF#	4d
.	.	16F#	.	.
.	.	16E	.	.
.	.	16DJJ)	.	.
.	.	(4D	(4FF#	[4dd
.	.	.	.	.
=389	=389	=389	=389	=389
*	*	*	*	*^
2D	2V7b	4C#)	4EE)	(16ddLL]	8g
.	.	.	.	16cc#	.
.	.	.	.	16b	8r
.	.	.	.	16aJJ)	.
*	*	*v	*v	*	*
.	.	(4CC#	[4a	[4gg
=390	=390	=390	=390	=390
2D	2I	4DD)	8a]	(16ggLL]
.	.	.	.	16ff#
.	.	.	8r	16ee
.	.	.	.	16ddJJ)
.	.	[4D	8f#	(16ddLL
.	.	.	.	16cc#
.	.	.	8r	16b
.	.	.	.	16aJJ)
=391	=391	=391	=391	=391
2D	2V	(16DLL]	4c# 4e	[4a
.	.	16C#	.	.
.	.	16BB	.	.
.	.	16AAJJ)	.	.
*	*	*	*v	*v
.	.	[4AA	(16aLL]
.	.	.	16g
.	.	.	16f#
.	.	.	16eJJ)
=392	=392	=392	=392
2T	2I	(16AALL]	4d
.	.	16GG	.
.	.	16FF#	.
.	.	16EEJJ)	.
.	.	4DD'	4r
*-	*-	*-	*-
!!!COM: Beethoven
!!!OTL: 24 Variationen uber Venni Amore von V. Righini
!!!Variation: Variation 22 a
**function	**harm	**kern	**kern
*	*	*clefF4	*clefG2
*	*	*k[f#c#]	*k[f#c#]
*M2/4	*M2/4	*M2/4	*M2/4
*D:	*D:	*D:	*D:
=393	=393	=393	=393
4T	4I	(16DLL	4f# 4ff#
.	.	16d	.
.	.	16F#	.
.	.	16DJJ	.
4T	4Vb	16c#LL	8.aL 8.aa
.	.	16E	.
.	.	16C#	.
.	.	16c#JJ)	16aJk 16aa
=394	=394	=394	=394
4T	4vi	(16BBLL	(4d 4dd
.	.	16B	.
.	.	16D	.
.	.	16BBJJ	.
4T	4iiib	16ALL	4f#) 4ff#
.	.	16C#	.
.	.	16AA	.
.	.	16AJJ)	.
=395	=395	=395	=395
4T	4IV	(16GGLL	4B 4b
.	.	16G	.
.	.	16BB	.
.	.	16GGJJ	.
4T	4viioD7c	16GLL	8.c#L 8.cc#
.	.	16BB-	.
.	.	16GG	.
.	.	16GJJ)	16c#Jk 16cc#
=396	=396	=396	=396
4T	4Ib	(16FF#LL	(4d 4dd
.	.	16F#	.
.	.	16AA	.
.	.	16GGJJ	.
4T	4ib	16FFLL	8A) 8a
.	.	16F	.
.	.	16AA	8r
.	.	16FFJJ)	.
=397	=397	=397	=397
4T	4Ib	(16FF#LL	4A 4a
.	.	16F#	.
.	.	16AA	.
.	.	16FF#JJ	.
4T	4I	16DLL	8.AL 8.a
.	.	16FF#	.
.	.	16DD	.
.	.	16DJJ)	16AJk 16a
=398	=398	=398	=398
4T	4Vb	(16CC#LL	2A 2a
.	.	16C#	.
.	.	16EE	.
.	.	16CC#JJ	.
4T	4I	16DLL	.
.	.	16FF#	.
.	.	16DD	.
.	.	16DJJ)	.
=399	=399	=399	=399
4P	4vi	(16BBBLL	4d 4dd
.	.	16BB	.
.	.	16DD	.
.	.	16BBBJJ	.
4P	4-VI	16BB-LL	8.dL 8.dd
.	.	16DD	.
.	.	16BBB-	.
.	.	16BB-JJ)	16dJk 16dd
=400	=400	=400	=400
2D	2V	(16AAALL	8a 8aa
.	.	16CC#	.
.	.	16EE	8r
.	.	16AAJJ)	.
.	.	8AAA	4r
.	.	8r	.
*-	*-	*-	*-
!!!COM: Beethoven
!!!OTL: 24 Variationen uber Venni Amore von V. Righini
!!!Variation: Variation 22 b
**function	**harm	**kern	**kern
*	*	*clefF4	*clefG2
*	*	*k[f#c#]	*k[f#c#]
*M2/4	*M2/4	*M2/4	*M2/4
*D:	*D:	*D:	*D:
=401	=401	=401	=401
2D	2V7	(16AALL	4e 4ee
.	.	16A	.
.	.	16C#	.
.	.	16AAJJ	.
.	.	16GLL	8.eL 8.ee
.	.	16C#	.
.	.	16GG	.
.	.	16GJJ)	16eJk 16ee
=402	=402	=402	=402
4D	4Ib	(16FF#LL	(4a 4aa
.	.	16F#	.
.	.	16AA	.
.	.	16FF#JJ	.
4D	4V7c	16ELL	4g 4gg
.	.	16AA	.
.	.	16EE	.
.	.	16EJJ)	.
=403	=403	=403	=403
4D	4Cto7/V	(16DD#LL	4f# 4ff#
.	.	16D#	.
.	.	16AA	.
.	.	16DD#JJ	.
4D	4V7c	16ELL	4g) 4gg
.	.	16AA	.
.	.	16EE	.
.	.	16EJJ)	.
=404	=404	=404	=404
4D	4V7b	(16CC#LL	8.aL 8.aa
.	.	16C#	.
.	.	16AA	.
.	.	16CC#JJ	16gJk 16gg
4D	4I	16DLL	4f# 4ff#
.	.	16AA	.
.	.	16DD	.
.	.	16DJJ)	.
=405	=405	=405	=405
2D	2V7	(16AALL	4e 4ee
.	.	16A	.
.	.	16C#	.
.	.	16AAJJ	.
.	.	16GLL	8.eL 8.ee
.	.	16C#	.
.	.	16GG	.
.	.	16GJJ)	16eJk 16ee
=406	=406	=406	=406
4D	4Ib	(16FF#LL	(4a 4aa
.	.	16F#	.
.	.	16AA	.
.	.	16FF#JJ	.
4D	4Cto7/V	16D#LL	4f# 4ff#
.	.	16AA	.
.	.	16DD#	.
.	.	16D#JJ)	.
=407	=407	=407	=407
2D	2V7	(16EELL	4g) 4gg
.	.	16E	.
.	.	16AA	.
.	.	16EEJJ	.
.	.	16GLL	8.cc#L 8.ccc#
.	.	16E	.
.	.	16AA	.
.	.	16GJJ)	16cc#Jk 16ccc#
=408	=408	=408	=408
2T	2I	(16F#LL	4dd 4ddd
.	.	16D	.
.	.	16AA	.
.	.	16FF#JJ)	.
.	.	8DD	4r
.	.	8r	.
*-	*-	*-	*-
!!!COM: Beethoven
!!!OTL: 24 Variationen uber Venni Amore von V. Righini
!!!Variation: Variation 23 a
**function	**harm	**kern	**kern
*	*	*clefF4	*clefG2
*	*	*k[f#c#]	*k[f#c#]
*M3/4	*M3/4	*M3/4	*M3/4
*D:	*D:	*D:	*D:
=409	=409	=409	=409
*	*	*^	*
2T	2I	2DD	8DL	4F# 4f#
.	.	.	8AAJ	.
.	.	.	8DL	4F# 4A 4f#
.	.	.	8AAJ	.
4T	4V7	4DD	8C#L	4G 4A 4e
.	.	.	8AAJ	.
=410	=410	=410	=410	=410
2T	2I	4DD	8DL	4.F# 4.A 4.d
.	.	.	8AAJ	.
*	*	*v	*v	*
.	.	8FF#L	.
.	.	8DDJ	8DL 8d
4T	4V7c/IV	8CCL 8EE	8D 8d
.	.	8AAAJ 8DD 8AA	8DJ 8F# 8c 8d
=411	=411	=411	=411
2.T	2.IV	8..GGGL 8..DD 8..GG	8..DL 8..G 8..B 8..d
.	.	32GGJkk 32D 32G	32dJkk 32b
.	.	8.GG 8.D 8.G	8.d 8.b 8.dd
.	.	16r	32r
.	.	.	32gg' 32bb'
.	.	8r	16ddd'
.	.	.	16r
.	.	16.r	16.r
.	.	32GGG 32DD 32GG	32D 32B 32d
=412	=412	=412	=412
2.T	2.Ib	8..FFF#L 8..DD 8..FF#	8..DL 8..A 8..d
.	.	32FF#Jkk 32AA 32F#	32dJkk 32a
.	.	8.FF# 8.AA 8.F#	8.d 8.a 8.dd
.	.	16r	32r
.	.	.	32aa'
.	.	8r	16ddd'
.	.	.	16r
.	.	16.r	16.r
*	*	*	*clefF4
.	.	32AA	32A
=413	=413	=413	=413
*	*	*^	*^
2.T	2.I	8r	4.AA	8r	4.A
.	.	(16.DDLL	.	(16.F#	.
.	.	32EEJJk	.	32E	.
.	.	8FF#)	.	8D)	.
.	.	8r	8AA	8r	(16ALL
.	.	.	.	.	16f#'JJ)
.	.	8r	8AAL	8r	(16f#LL
.	.	.	.	.	16d')
.	.	8DD	8AAJ 8D	8F# 8A	(16d
.	.	.	.	.	16g'JJ)
=414	=414	=414	=414	=414	=414
4T	4V7c	8EE	8AA 8C#	8G 8A	8g
.	.	(16.EELL	4AA	(16.G	4A
.	.	32FF#JJk)	.	32F#	.
2T	2V7d	8GG	.	8E)	.
*	*	*	*	*	*clefG2
.	.	4r	(8AA'	4r	(16ALL
.	.	.	.	.	16gJJ)
.	.	.	8AA'L)	.	(16gLL
.	.	.	.	.	16e)
*	*	*v	*v	*	*
.	.	8GGJ 8AA 8C#	8A	(16e
.	.	.	.	16aJJ)
=415	=415	=415	=415	=415
8T	8Ib	8FF#L 8AA 8D	8A	(16aLL
.	.	.	.	16f#)
8T	8V7d/ii	8AAJ 8BB 8D#	4B	(16f#
.	.	.	.	16bJJ)
8T	8ii	8GGL 8BB 8E	.	(16bLL
.	.	.	.	16e)
8T	8V7d	8GGJ 8AA 8E	8c#	(16e
.	.	.	.	16cc#JJ)
4T	4Ib	8FF# 8AA 8D	8d	(16f#LL
.	.	.	.	16ddJJ)
.	.	8r	8r	8r
=416	=416	=416	=416	=416
*	*	*^	*	*
2.D	2.V	8r	8r	8r	8r
.	.	4AA	8F#L	8dL	[4a
.	.	.	8E	8c#	.
.	.	8.AA	8D	8f#	8a]
.	.	.	16C#Jk	16eJk	(48aLLL
.	.	.	.	.	48g
.	.	.	.	.	48f#JJ
*	*	*v	*v	*	*
*	*	*	*v	*v
.	.	16r	48gLL
.	.	.	48a
.	.	.	48bJJ
.	.	8r	48cc#LL
.	.	.	48dd
.	.	.	48eeJJ
.	.	.	48ff#LL
.	.	.	48aa
.	.	.	48ggJJJ)
*-	*-	*-	*-
!!!COM: Beethoven
!!!OTL: 24 Variationen uber Venni Amore von V. Righini
!!!Variation: Variation 23 a2
**function	**harm	**kern	**kern
*	*	*clefF4	*clefG2
*	*	*k[f#c#]	*k[f#c#]
*M2/4	*M2/4	*M2/4	*M2/4
*D:	*D:	*D:	*D:
=417	=417	=417	=417
*	*	*^	*
2T	2I	2D	8AL	4ff#
.	.	.	8dJ	.
.	.	.	8F#L 8A	(4f# 4ff#
.	.	.	8dJ	.
4T	4V7	4D 4G	8AL	4e) 4ee
.	.	.	8c#J	.
*	*	*v	*v	*
=418	=418	=418	=418
2T	2I	8DL 8F# 8A	8dL 8dd
*	*	*clefG2	*
.	.	(8aJ	[8ddJ
.	.	8f#L	(16ddLL]
.	.	.	32cc#L
.	.	.	32ddJJ
.	.	8dJ	32eeLL
.	.	.	32ff#
.	.	.	32gg
.	.	.	32aaJJJ
4T	4V7/IV	8cL)	32bbLLL
.	.	.	32ccc
.	.	.	32ccc#
.	.	.	32dddJJJ)
*	*	*clefF4	*
.	.	8F#J 8c 8d	16.r
.	.	.	32ddd
=419	=419	=419	=419
2.T	2.IV	8..GL 8..B 8..d	16dd 16ddd
.	.	.	16r
.	.	.	[8d [8dd
.	.	32GGJkk 32BB 32D	.
.	.	4.GG 4.BB 4.D	16d] 16dd]
.	.	.	16r
.	.	.	(24a#'LL
.	.	.	24b'
.	.	.	24cc#'JJ
.	.	.	24dd'LL
.	.	.	24ff#'
.	.	.	24gg'J
.	.	8r	24aa#'L
.	.	.	24bb'
.	.	.	24ccc#'JJ)
=420	=420	=420	=420
2.T	2.Ib	8..F#L 8..A 8..d	16dd 16ddd
.	.	.	16r
.	.	.	[8d [8dd
.	.	32FF#Jkk 32AA 32D	.
.	.	4.FF# 4.AA 4.D	16d] 16dd]
.	.	.	16r
.	.	.	(24g#'LL
.	.	.	24a'
.	.	.	24cc#'JJ
.	.	.	24dd'LL
.	.	.	24ee#'
.	.	.	24ff#'J)
.	.	8r	(32ggLL
.	.	.	32gg#
.	.	.	32aa
.	.	.	32ggJJJ
=421	=421	=421	=421
2.T	2.Ic	16r	16ff#')
.	.	(16AAALL [16AA	16r
*	*	*	*^
.	.	16DD 16AA_ 16D	8.f# 8.a	(16.ff#LL
.	.	16EEJJ 16AA_ 16E	.	.
.	.	.	.	32eeJJk
.	.	16FF#LL 16AA_ 16F#	.	16dd)
.	.	16GG 16AA_ 16G	[8.A	16ALL
.	.	16FF# 16AA_ 16F#	.	16d
.	.	16EEJJ 16AA_ 16E	.	16c#JJ 16e
.	.	16DDLL 16AA_ 16D	8A]	8d 8f#
.	.	16CC# 16AA] 16C#	.	.
.	.	16BBB 16BB	(8f#	(16.ff#LL
.	.	16AAAJJ) 16AA	.	.
.	.	.	.	32ddJJk)
=422	=422	=422	=422	=422
2.T	2.V7	16r	8g) 8cc#	8gg
.	.	(16AAALL [16AA	.	.
.	.	16EE 16AA_ 16E	[8A	(16.eLL 16.g
.	.	16FF#JJ 16AA_ 16F#	.	.
.	.	.	.	32dJJk) 32f#
.	.	16GGLL 16AA_ 16G	16A]	16c# 16e
.	.	16FF# 16AA_ 16F#	[8.a	(16aLL
.	.	16EE 16AA_ 16E	.	16cc# 16ee
.	.	16DDJJ 16AA_ 16D	.	16ddJJ) 16ff#
.	.	16CC#LL 16AA_ 16C#	8a]	8ee 8gg
.	.	16BBB 16AA] 16BB	.	.
.	.	16AAA 16AA	[8a (8cc#	(16.ggLL
.	.	16GGGJJ) 16GG	.	.
.	.	.	.	32eeJJk
=423	=423	=423	=423	=423
8T	8Ib	8FFF#' 8FF#'	8a] 8dd)	32aaLLL)
.	.	.	.	32aa
.	.	.	.	32ee#
.	.	.	.	32ff#JJJ
*	*	*	*v	*v
8T	8V7d/ii	(8AL 8B 8d#	32r
.	.	.	(32ff#LLL
.	.	.	32ccc
.	.	.	32bbJJJ)
8T	8iib	8G 8B 8e	32r
.	.	.	(32bbLLL
.	.	.	32dd#
.	.	.	32eeJJJ)
8T	8V7d	8G 8A 8c#	32r
.	.	.	(32eeLLL
.	.	.	32bb
.	.	.	32aaJJJ)
4T	4Ib	8F#J) 8A 8d	32r
.	.	.	(32aaLLL
.	.	.	32eee
.	.	.	32dddJJ
.	.	8r	32cccLL
.	.	.	32bb
.	.	.	32aa
.	.	.	32ggJJJ
*	*	*clefG2	*
=424	=424	=424	=424
2.D	2.V	8r	32ff#LLL
.	.	.	32gg
.	.	.	32gg#
.	.	.	32aaJJ
*	*	*^	*^
.	.	4A	(8f#	8ddLL	32bbLL
.	.	.	.	.	32aa
.	.	.	.	.	32gg#
.	.	.	.	.	32aaJJJ)
.	.	.	8eL	8cc#	32r
.	.	.	.	.	(32aaLLL
.	.	.	.	.	32gg#
.	.	.	.	.	32aaJJ
.	.	8A	8dJ)	8ff#J	32bbLL
.	.	.	.	.	32aa
.	.	.	.	.	32gg#
.	.	.	.	.	32aaJJJ)
.	.	.	.	.	q8gg#
.	.	.	.	.	q8aa
.	.	8A;	8c#;	8ee;	8aa
*	*	*v	*v	*	*
*	*	*	*v	*v
.	.	.	q8gg#
.	.	.	q8aa
.	.	.	q8ccc#
.	.	.	q8aa
.	.	.	q8ee
.	.	.	q8cc#
.	.	8AAA;	8r;
*-	*-	*-	*-
!!!COM: Beethoven
!!!OTL: 24 Variationen uber Venni Amore von V. Righini
!!!Variation: Variation 23 b
**function	**harm	**kern	**kern
*	*	*clefG2	*clefG2
*	*	*k[f#c#]	*k[f#c#]
*M2/4	*M2/4	*M2/4	*M2/4
*D:	*D:	*D:	*D:
=425	=425	=425	=425
2.D	2.V7	16ALL	4r
.	.	(16a'	.
.	.	16a'	.
.	.	16a'JJ)	.
.	.	(16a'LL	8r
.	.	16a'	.
.	.	16a'	16.ggLL
.	.	16a'JJ)	.
.	.	.	32ff#JJk
.	.	(16g'LL 16a'	16.eeLL
.	.	16g' 16a'	.
.	.	.	32ddJJk
.	.	16g' 16a'	16cc#
.	.	16g'JJ) 16a'	16r
=426	=426	=426	=426
2.D	2.I	16f#LL 16a	16dd
.	.	16f# 16a	16r
*	*	*	*clefF4
.	.	16f# 16a	4d
.	.	16f#JJ 16a	.
.	.	16f#LL 16a	.
.	.	16f# 16a	.
.	.	16f# 16a	16.ALL
.	.	16f#JJ 16a	.
.	.	.	32GJJk
.	.	16f#LL 16a	16.F#LL
.	.	16f# 16a	.
.	.	.	32EJJk
.	.	16f# 16a	16D
.	.	16f#JJ 16a	16r
=427	=427	=427	=427
2.D	2.V7b	16gLL 16a	16C#
.	.	16g 16a	16r
*	*	*	*clefG2
.	.	16g 16a	4bb
.	.	16gJJ 16a	.
.	.	16gLL 16a	.
.	.	16g 16a	.
.	.	16g 16a	16.ggLL
.	.	16gJJ 16a	.
.	.	.	32ff#JJk
.	.	16gLL 16a	16.eeLL
.	.	16g 16a	.
.	.	.	32ddJJk
.	.	16g 16a	16cc#
.	.	16gJJ 16a	16r
=428	=428	=428	=428
2.D	2.I	16f#LL 16a	16dd
.	.	16f# 16a	16r
*	*	*	*clefF4
.	.	16f# 16a	4d
.	.	16f#JJ 16a	.
.	.	16f#LL 16a	.
.	.	16f# 16a	.
.	.	16f# 16a 16dd	16.ALL
.	.	16f#JJ 16a 16dd	.
.	.	.	32GJJk
.	.	16f#LL 16a 16dd	16.F#LL
.	.	16f# 16a 16dd	.
.	.	.	32EJJk
.	.	16f# 16a 16dd	16D
.	.	16f#JJ 16a 16dd	16r
=429	=429	=429	=429
2D	2V7c/V	16g#LL 16dd	8BB
.	.	16g# 16dd	.
*	*	*	*clefG2
.	.	16g# 16dd	4bb
.	.	16g#JJ 16dd	.
.	.	16g#LL 16dd 16ee	.
.	.	16g# 16dd 16ee	.
.	.	16g# 16dd 16ee	16.eeeLL
.	.	16g#JJ 16dd 16ee	.
.	.	.	32dddJJk
4D	4ii/IV	16aLL 16cc 16ee	16.cccLL
.	.	16a 16cc 16ee	.
.	.	.	32bbJJk
.	.	16a 16cc 16ee	16aa
.	.	16aJJ 16cc 16ee	16r
=430	=430	=430	=430
2D	2V7b/IV	8f# 8cc 8dd	8r
.	.	.	q8ccc#
.	.	8r	8ddd
.	.	4r	8r
.	.	.	q8cccn
.	.	.	16.bbLL
.	.	.	32aaJJk
4P	4IV	8b' 8dd'	8gg'
.	.	8r	8r
=431	=431	=431	=431
*	*	*clefF4	*
2P	2iib	8GG 8BB 8E	8r
.	.	.	q8f#
.	.	8r	8g
.	.	4r	8r
.	.	.	q8f#
.	.	.	16.eLL
.	.	.	32dJJk
4D	4V7	8AA' 8E' 8G'	8c#'
.	.	8r	16.r
.	.	.	[32c#
=432	=432	=432	=432
*	*	*^	*
2T	2I	2DD	8r	2G 2A 2c#] 2e
.	.	.	16r	.
.	.	.	(16C#	.
.	.	.	16D	.
.	.	.	16C#	.
.	.	.	16BB	.
.	.	.	16AA)	.
8T	8I	8DD	8AA	8F# 8d
*	*	*v	*v	*
*-	*-	*-	*-
!!!COM: Beethoven
!!!OTL: 24 Variationen uber Venni Amore von V. Righini
!!!Variation: Variation 23 b2
**function	**harm	**kern	**kern
*	*	*clefG2	*clefG2
*	*	*k[f#c#]	*k[f#c#]
*M2/4	*M2/4	*M2/4	*M2/4
*D:	*D:	*D:	*D:
8T	8I	32r	8r
.	.	(32dLLL	.
.	.	32f#	.
.	.	32dJJJ)	.
=433	=433	=433	=433
2.D	2.V7	(16a'LL	8r
.	.	16a'	.
.	.	16a'	[8gg
.	.	16a'JJ)	.
.	.	(16a'LL	16gg]
.	.	16a'	(64aaLLLL
.	.	.	64ff#
.	.	.	64gg
.	.	.	64bbJJJJ)
.	.	16a'	16ee
.	.	16a'JJ)	(64ff#LLLL
.	.	.	64dd#
.	.	.	64ee
.	.	.	64ff#JJJJ)
.	.	(16g'LL 16a'	16cc#
.	.	16g' 16a'	(64ddLLLL
.	.	.	64b
.	.	.	64cc#
.	.	.	64eeJJJJ)
.	.	16g'	16.aLL
.	.	16g'JJ) 16a'	.
.	.	.	32aJJk
=434	=434	=434	=434
2.D	2.I	16f#LL 16a	16dd
.	.	16f# 16a	16r
.	.	16f# 16a	[8d
.	.	16f#JJ 16a	.
.	.	16f#LL 16a	16d]
.	.	16f# 16a	(64eLLL
.	.	.	64c#
.	.	.	64d
.	.	.	64f#JJJJ)
.	.	16f# 16a	16A
*	*	*	*clefF4
.	.	16f#JJ 16a	(64BLLLL
.	.	.	64G#
.	.	.	64A
.	.	.	64dJJJJ)
.	.	16f#LL 16a	16F#
.	.	16f# 16a	(64GLLLL
.	.	.	64E
.	.	.	64F#
.	.	.	64AJJJJ)
.	.	16f# 16a	16.DLL
.	.	16f#JJ 16a	.
.	.	.	32DJJk
=435	=435	=435	=435
2.D	2.V7b	16gLL 16a	8C#
.	.	16g 16a	.
*	*	*	*clefG2
.	.	16g 16a	[8bb
.	.	16gJJ 16a	.
.	.	16gLL 16a	16bb]
.	.	16g 16a	(64aaLLL
.	.	.	64ff#
.	.	.	64gg
.	.	.	64bbJJJJ)
.	.	16g 16a	16ee
.	.	16gJJ 16a	(64ff#LLLL
.	.	.	64dd#
.	.	.	64ee
.	.	.	64ff#JJJJ)
.	.	16gLL 16a	16cc#
.	.	16g 16a	(64ddLLLL
.	.	.	64b
.	.	.	64cc#
.	.	.	64eeJJJJ)
.	.	16g	16.aLL
.	.	16gJJ 16a	.
.	.	.	32aJJk
=436	=436	=436	=436
2.D	2.I	16f#LL 16a	16dd
.	.	16f# 16a	16r
.	.	16f# 16a	[8d
.	.	16f#JJ 16a	.
.	.	16f#LL 16a	16d]
.	.	16f# 16a	80e
.	.	.	80c#
.	.	.	80d
.	.	.	80f#
.	.	.	80G#
.	.	16f# 16a	16AL
*	*	*	*clefF4
.	.	16f#JJ 16a	80B
.	.	.	80G#
.	.	.	80A
.	.	.	80d
.	.	.	80E#
.	.	16f#LL 16a 16dd	16F#
.	.	16f# 16a 16dd	16r
.	.	16f# 16a 16dd	16.DDLL
.	.	16f#JJ 16a 16dd	.
.	.	.	32CC#JJk
=437	=437	=437	=437
2D	2V7c/V	16g#LL 16dd	16BBB
.	.	16g# 16dd	16r
*	*	*	*clefF4
.	.	16g# 16dd	[8bb
.	.	16g#JJ 16dd	.
.	.	16g#LL 16dd 16ee	16bb]
.	.	16g# 16dd 16ee	(64ccc#LLL
.	.	.	64aa#
.	.	.	64bb
.	.	.	64fffJJJJ)
.	.	16g# 16dd 16ee	16eee
.	.	16g#JJ 16dd 16ee	32r
.	.	.	32bb
4D	4ii/IV	16aLL 16cc 16ee	32dddLLL
.	.	.	32ccc
.	.	16a 16cc 16ee	32bb
.	.	.	32aa#JJ
.	.	16a 16cc 16ee	32gg#LL
.	.	.	32aa#
.	.	16aJJ 16cc 16ee	32bb
.	.	.	32cccJJJ
=438	=438	=438	=438
2D	2V7b/IV	8f# 8cc	8ddL 8ddd
.	.	8r	(128ddLLLK
.	.	.	64.dddJJJJ)
.	.	.	32r
.	.	.	16r
.	.	4r	16.r
.	.	.	(64cccLLLL
.	.	.	64bbJJJJ)
.	.	.	16ddd'
.	.	.	32r
.	.	.	(64aaLLLL
.	.	.	64ggJJJJ)
4P	4IV	8g' 8dd'	8bb'
.	.	8r	8r
=439	=439	=439	=439
*	*	*clefF4	*
2P	2iib	8GG 8BB 8E	8r
.	.	8r	(128BLLLLK
.	.	.	64.gJJJJ)
.	.	.	32r
.	.	.	16r
.	.	16r	16.r
.	.	16r	.
.	.	.	(64f#LLLL
.	.	.	64eJJJJ)
.	.	16r	16g'
.	.	16r	32r
.	.	.	(64dLLLL
.	.	.	64c#JJJJ)
4D	4V7	8AA' 8G'	8e'
.	.	8r	16.r
.	.	.	[32c#
*	*	*	*
=440	=440	=440	=440
*	*	*^	*
2T	2I	2DD	8r	2G 2A 2c#] 2e
.	.	.	(24ELL	.
.	.	.	24D	.
.	.	.	24C#JJ	.
.	.	.	24BBLL	.
.	.	.	24AA	.
.	.	.	24GGJ	.
.	.	.	24FF#L	.
.	.	.	24AA	.
.	.	.	24GGJJ)	.
.	.	4DD;	4FF#;	4A; 4d;
*	*	*v	*v	*
*-	*-	*-	*-
!!!COM: Beethoven
!!!OTL: 24 Variationen uber Venni Amore von V. Righini
!!!Variation: Variation 24 a
**function	**harm	**kern	**kern
*	*	*clefF4	*clefG2
*	*	*k[f#c#]	*k[f#c#]
*M2/4	*M2/4	*M2/4	*M2/4
*D:	*D:	*D:	*D:
=441	=441	=441	=441
*	*	*^	*
2T	2I	[2D	8AL	(8ggL
.	.	.	8dJ	8ff#'J)
.	.	.	8GL	(8ff#L
.	.	.	8dJ	8ee'J)
=442	=442	=442	=442	=442
2T	2I	4D]	8F#L	(8eeL
.	.	.	8dJ	8dd'J)
.	.	4r	8AL	(8ddL
.	.	.	8dJ	8cc#'J)
*	*	*v	*v	*
=443	=443	=443	=443
2T	2ii7	8GL	(8cc#L
.	.	8dJ	8b'J)
.	.	8EL	(8bL
.	.	8dJ	8dd'J)
=444	=444	=444	=444
2T	2I	8F#L	(8ddL
.	.	8dJ	8a'J)
.	.	8DL	(8aL
.	.	8AJ	8f#'J)
=445	=445	=445	=445
2T	2V7b	8EL	(8f#L
.	.	8AJ	8g'J)
.	.	8C#L	(8gL
.	.	8AJ	8ee'J)
=446	=446	=446	=446
2T	2I	8DL	(8eeL
.	.	8AJ	8f#'J)
.	.	8AAL	(8f#L
.	.	8AJ	8dd'J)
=447	=447	=447	=447
4P	4IV	8GGL	(8ddL
.	.	8AJ	8e'J)
4D	4V	8AAL	(8eL
.	.	8AJ	8cc#'J)
=448	=448	=448	=448
2T	2I	4D	4f# 4dd
.	.	4DD	4r
*-	*-	*-	*-
!!!COM: Beethoven
!!!OTL: 24 Variationen uber Venni Amore von V. Righini
!!!Variation: Variation 24 b
**function	**harm	**kern	**kern
*	*	*clefF4	*clefG2
*	*	*k[f#c#]	*k[f#c#]
*M2/4	*M2/4	*M2/4	*M2/4
*D:	*D:	*D:	*D:
=449	=449	=449	=449
2T	2I	8F#L	(8aL
.	.	8AJ	8dd'J)
.	.	8DL	(8ddL
.	.	8AJ	8ff#'J)
=450	=450	=450	=450
2T	2V7b	8C#L	(8ff#L
.	.	8AJ	8gg'J)
.	.	8GGL	(8ggL
.	.	8AJ	8ccc#'J)
=451	=451	=451	=451
2T	2Ib	8FF#L	(8ccc#L
.	.	8AJ	8ddd'J)
.	.	8DL	(8dddL
.	.	8AJ	8aa'J)
=452	=452	=452	=452
2T	2V7b	8C#L	(8aaL
.	.	8AJ	8gg'J)
.	.	8GL	(8ggL
.	.	8AJ	8ee'J)
=453	=453	=453	=453
2T	2I	8F#L	(8eeL
.	.	8AJ	8dd'J)
.	.	8DL	(8ddL
.	.	8AJ	8a'J)
=454	=454	=454	=454
2T	2V7	8C#L	(8aL
.	.	8AJ	8g'J)
.	.	8AAL 8G	(8gL
.	.	8AJ	8e'J)
=455	=455	=455	=455
4T	4I	8DL 8F#	(8eL
.	.	8AJ	8d'J)
4D	4V7	8AAL 8G	(8f#L
.	.	8AJ	8e'J)
=456	=456	=456	=456
2T	2I	8D' 8F#'L	4d'
.	.	8DDJ	.
.	.	8DDL	4r
.	.	8DDJ	.
*-	*-	*-	*-
!!!COM: Beethoven
!!!OTL: 24 Variationen uber Venni Amore von V. Righini
!!!Variation: Variation 24 c
**function	**harm	**kern	**kern
*	*	*clefF4	*clefG2
*	*	*k[f#c#]	*k[f#c#]
*M2/4	*M2/4	*M2/4	*M2/4
*D:	*D:	*D:	*D:
=457	=457	=457	=457
*	*	*^	*
2T	2IV	8DDL	8GG'	(8ddL
.	.	8DD	8r	8bb'J) 8ddd'
.	.	8DD	8BB'	(8bbL 8ddd
.	.	8DDJ	8r	8gg'J) 8bb'
=458	=458	=458	=458	=458
2T	2I	8DDL	8D'	(8ggL 8bb
.	.	8DD	8r	8ff#'J) 8aa'
.	.	8DD	4r	4r
.	.	8DDJ	.	.
=459	=459	=459	=459	=459
2T	2IV	8DDL	8GG'	(8dL
.	.	8DD	8r	8b'J) 8dd'
.	.	8DD	8BB'	(8bL 8dd
.	.	8DDJ	8r	8g'J) 8b'
=460	=460	=460	=460	=460
2T	2I	8DDL	8D'	(8gL 8b
.	.	8DD	8r	8f#'J) 8a'
.	.	8DD	4r	4r
.	.	8DDJ	.	.
*	*	*v	*v	*
=461	=461	=461	=461
2T	2V7b	2CC# 2GG 2AA	16ALL
.	.	.	16B
.	.	.	16c#
.	.	.	16BJJ
.	.	.	16ALL
.	.	.	16B
.	.	.	16c#
.	.	.	16AJJ
=462	=462	=462	=462
2T	2I	4DD 4FF# 4AA	16dLL
.	.	.	16e
.	.	.	16f#
.	.	.	16gJJ
.	.	4r	16aLL
.	.	.	16b
.	.	.	16cc#
.	.	.	16ddJJ
=463	=463	=463	=463
4P	4ii	8GG' 8E'	16eeLL
.	.	.	16gg
.	.	8r	16ee
.	.	.	16bJJ
4D	4V7	8AA' 8G'	16aLL
.	.	.	16ee
.	.	8r	16cc#
.	.	.	16aJJ
=464	=464	=464	=464
2T	2I	8D'L 8F#'	4dd'
.	.	8D	.
.	.	8D	4r
.	.	8DJ	.
=465	=465	=465	=465
*	*	*^	*
2T	2IV	8DL	8G'	(8ddL
.	.	8D	8r	8bb'J) 8ddd'
.	.	8D	8B'	(8bbL 8ddd
.	.	8DJ	8r	8gg'J) 8bb'
=466	=466	=466	=466	=466
2T	2I	8DL	8d'	(8ggL 8bb
.	.	8D	8r	8ff#'J) 8aa'
.	.	8D	4r	4r
.	.	8DJ	.	.
=467	=467	=467	=467	=467
2T	2IV	8DL	8G'	(8dL
.	.	8D	8r	8b'J) 8dd'
.	.	8D	8B'	(8bL 8dd
.	.	8DJ	8r	8g'J) 8b'
=468	=468	=468	=468	=468
2T	2I	8DL	8d'	(8gL 8b
.	.	8D	8r	8f#'J) 8a'
.	.	8D	4r	4r
.	.	8DJ	.	.
*	*	*v	*v	*
=469	=469	=469	=469
2T	2V7b	(2C# 2G	16ALL
.	.	.	16B
.	.	.	16c#
.	.	.	16BJJ
.	.	.	16ALL
.	.	.	16B
.	.	.	16c#
.	.	.	16AJJ
=470	=470	=470	=470
2T	2I	4D) 4F#	16dLL
.	.	.	16e
.	.	.	16f#
.	.	.	16gJJ
.	.	4r	16aLL
.	.	.	16b
.	.	.	16cc#
.	.	.	16ddJJ
*	*	*clefG2	*
=471	=471	=471	=471
2T	2V7	(2A 2c# 2g	16eeLL
.	.	.	16dd
.	.	.	16cc#
.	.	.	16bJJ
.	.	.	16aLL
.	.	.	16b
.	.	.	16cc#
.	.	.	16aJJ
=472	=472	=472	=472
2T	2I	4d) 4f#	16ddLL
.	.	.	16ee
.	.	.	16ff#
.	.	.	16ggJJ
.	.	4r	16aaLL
.	.	.	16bb
.	.	.	16ccc#
.	.	.	16dddJJ
*	*	*clefF4	*
=473	=473	=473	=473
2T	2V7b	(2C# 2G 2A	16eeeLL
.	.	.	16ddd
.	.	.	16ccc#
.	.	.	16bbJJ
.	.	.	16aaLL
.	.	.	16bb
.	.	.	16ccc#
.	.	.	16aaJJ
=474	=474	=474	=474
2T	2I	4D) 4F#	16dddLL
.	.	.	16ccc#
.	.	.	16bb
.	.	.	16aaJJ
.	.	4r	16ggLL
.	.	.	16ff#
.	.	.	16ee
.	.	.	16ddJJ
=475	=475	=475	=475
4P	4iib	8GG' 8E'	16bLL
.	.	.	16gg
.	.	8r	16ee
.	.	.	16bJJ
4D	4V	8AA' 8A'	16aLL
.	.	.	16ee
.	.	8r	16cc#
.	.	.	16aJJ
=476	=476	=476	=476
2T	2I	4DD' 4D'	4dd'
.	.	4r	4r
=477	=477	=477	=477
2T	2r	2r	2r
=478	=478	=478	=478
2T	2r	2r	2r
=479	=479	=479	=479
2T	2I	2r	4ddd
.	.	.	4r
=480	=480	=480	=480
2T	2r	2r	2r
=481	=481	=481	=481
2T	2r	2r	2r
*-	*-	*-	*-
!!!COM: Beethoven
!!!OTL: 24 Variationen uber Venni Amore von V. Righini
!!!Variation: Variation 24 d
**function	**harm	**kern	**kern
*	*	*clefG2	*clefG2
*	*	*k[f#c#]	*k[f#c#]
*M2/4	*M2/4	*M2/4	*M2/4
*D:	*D:	*D:	*D:
=482	=482	=482	=482
*	*	*^	*
2T	2I/-VI	[2B-	8fL	(4ddd
.	.	.	8b-J	.
.	.	.	8e-L	4ccc)
.	.	.	8b-J	.
=483	=483	=483	=483	=483
2T	2I/-VI	2B-]	8dL	4.bb-
.	.	.	8b-J	.
.	.	.	8fL	.
.	.	.	8b-J	(8aa
=484	=484	=484	=484	=484
2T	2IV/-VI	[2B-	8e-L	4gg)
.	.	.	8b-J	.
.	.	.	8e-L	8ggL
.	.	.	8b-J	8bb-J
=485	=485	=485	=485	=485
2T	2I/-VI	2B-]	8dL	(2ff
.	.	.	8b-J	.
.	.	.	8fL	.
.	.	.	8b-J	.
=486	=486	=486	=486	=486
2P	2viioD7d	4B-	8c#L	(4ee')
.	.	.	8gJ	.
.	.	(4B-	8c#L	4ee')
.	.	.	8gJ	.
=487	=487	=487	=487	=487
2D	2V7	2A)	8c#L	4ee
.	.	.	8gJ	.
.	.	.	8c#L	[4aa
.	.	.	8gJ	.
=488	=488	=488	=488	=488
4D	4Ic	4A	8dL	4aa]
.	.	.	8f#J	.
4D	4V7	4A	8gL	(8bbL
.	.	.	8eJ	8ccc#J)
*	*	*v	*v	*
*	*	*clefF4	*
=489	=489	=489	=489
2T	2I	4d'	4ddd
.	.	4D'	4r
=490	=490	=490	=490
*	*	*^	*
2T	2I/-VI	[2BB-	8FL	(4dd 4ddd
.	.	.	8B-J	.
.	.	.	8E-L	4cc 4ccc
.	.	.	8B-J	.
=491	=491	=491	=491	=491
2T	2I/-VI	2BB-]	8DL	4.b- 4.bb-
.	.	.	8B-J	.
.	.	.	8FL	.
.	.	.	8B-J	8a) 8aa
=492	=492	=492	=492	=492
2T	2IV/-VI	[2BB-	8E-L	4g 4gg
.	.	.	8B-J	.
.	.	.	8E-L	8b-L 8gg
.	.	.	8B-J	8bb-J
=493	=493	=493	=493	=493
2T	2I/-VI	2BB-]	8DL	(2f 2ff
.	.	.	8B-J	.
.	.	.	8FL	.
.	.	.	8B-J	.
=494	=494	=494	=494	=494
2P	2viioD7d	4BB-	8C#L	(4e') 4ee'
.	.	.	8GJ	.
.	.	4BB-	8C#L	4e') 4ee'
.	.	.	8GJ	.
=495	=495	=495	=495	=495
2D	2V7	2AA	8C#L	4e 4ee
.	.	.	8GJ	.
.	.	.	8C#L	[4a [4aa
.	.	.	8GJ	.
=496	=496	=496	=496	=496
2D	2V7/IV	4AA	8DL	4a] 4aa]
.	.	.	8F#J	.
.	.	4AA	8CL	8bL 8bb
.	.	.	8F#J	8ccJ 8ccc
=497	=497	=497	=497	=497
2T	2I/IV	[2GG	8BBL 8D	([4dd 4bb [4ddd
.	.	.	8GJ	.
.	.	.	8CL	4dd] 4aa 4ddd]
.	.	.	8GJ	.
=498	=498	=498	=498	=498
2T	2I/IV	2GG]	8BBL	4.gg
.	.	.	8GJ	.
.	.	.	8DL	.
.	.	.	8GJ	8ff#
=499	=499	=499	=499	=499
2T	2IV/IV	[2GG	8CL	4ee)
.	.	.	8GJ	.
.	.	.	8CL	(8eeL
.	.	.	8GJ	8ggJ)
=500	=500	=500	=500	=500
2T	2I/IV	2GG]	8BBL	2dd
.	.	.	8GJ	.
.	.	.	8DL	.
.	.	.	8GJ	.
=501	=501	=501	=501	=501
*Ab:	*Ab:	*Ab:	*Ab:	*Ab:
2T	2V7b	4GG	8CL	4ee-
.	.	.	8GJ	.
.	.	4E-	8BB-L	4d- 4e- 4dd-
.	.	.	8GJ	.
=502	=502	=502	=502	=502
2T	2I	[2AA- 2E-	8CL	4c 4e- 4cc
.	.	.	8A-J	.
.	.	.	8E-L	4b-
.	.	.	8GJ	.
=503	=503	=503	=503	=503
2T	2I	2AA-_	8CL	4.e- 4.a-
.	.	.	8A-J	.
.	.	.	8E-L	.
.	.	.	8A-J	8g
=504	=504	=504	=504	=504
2T	2IV	2AA-_	8D-L	4f
.	.	.	8A-J	.
.	.	.	8D-L	(8fL
.	.	.	8A-J	8a-'J)
=505	=505	=505	=505	=505
2T	2I	2AA-_	8CL	4e-
.	.	.	8A-J	.
.	.	.	8E-L	4r
.	.	.	8A-J	.
=506	=506	=506	=506	=506
2T	2IV	2AA-_	8D-L	4ff'
.	.	.	8A-J	.
.	.	.	8D-L	(8ffL
.	.	.	8A-J	8aa-'J)
=507	=507	=507	=507	=507
2T	2I	2AA-]	8CL	4ee-
.	.	.	8A-J	.
.	.	.	8E-L	4r
.	.	.	8A-J	.
=508	=508	=508	=508	=508
2T	2IV	[2AA-	8D-L	4f'
.	.	.	8A-J	.
.	.	.	8D-L	(8fL
.	.	.	8A-J	8a-'J)
=509	=509	=509	=509	=509
2T	2I	2AA-_	8CL	4e-
.	.	.	8A-J	.
.	.	.	8E-L	4r
.	.	.	8A-J	.
=510	=510	=510	=510	=510
2T	2IV	2AA-]	8D-L	4ff-'
.	.	.	8A-J	.
.	.	.	8D-L	(8ff-L
.	.	.	8A-J	8aa-'J)
=511	=511	=511	=511	=511
2T	2I	[2AA-	8CL	4ee-
.	.	.	8A-J	.
.	.	.	8E-L	4r
.	.	.	8A-J	.
=512	=512	=512	=512	=512
2T	2I	2AA-_	8CL	2r
.	.	.	8A-J	.
.	.	.	8E-L	.
.	.	.	8A-J	.
=513	=513	=513	=513	=513
*D:	*D:	*D:	*D:	*D:
2T	2iii/V	2GG#]	8C#L	2r
.	.	.	8G#J	.
.	.	.	8EL	.
.	.	.	8G#J	.
=514	=514	=514	=514	=514
2D	2V	[2AA	8C#L	2r
.	.	.	8AJ	.
.	.	.	8EL	.
.	.	.	8AJ	.
=515	=515	=515	=515	=515
2D	2Ic	2AA]	8DL	2r
.	.	.	8AJ	.
.	.	.	8F#L	.
.	.	.	8AJ	.
=516	=516	=516	=516	=516
2D	2Ic	[2AA	8DL	4ff#'
.	.	.	8AJ	.
.	.	.	8DL	(8ff#L
.	.	.	8AJ	8aa'J)
=517	=517	=517	=517	=517
2D	2V	2AA_	8C#L	4ee
.	.	.	8AJ	.
.	.	.	8EL	4r
.	.	.	8AJ	.
=518	=518	=518	=518	=518
2D	2Ic	2AA]	8DL	4f#'
.	.	.	8AJ	.
.	.	.	8DL	(8f#L
.	.	.	8AJ	8a'J)
=519	=519	=519	=519	=519
2D	2V	2AA	8C#L	4e
.	.	.	8AJ	.
.	.	.	8EL	4r
.	.	.	8AJ	.
*	*	*v	*v	*
=520	=520	=520	=520
2T	2I	4D 4A	4ff#'
.	.	4r	(8ff#L
.	.	.	8aa'J)
=521	=521	=521	=521
2T	2Vb	4C# 4A	4ee'
.	.	4r	(8eeL
.	.	.	8aa'J)
=522	=522	=522	=522
2T	2I	4D 4A	4ff#'
.	.	4r	(8ff#L
.	.	.	8aa'J)
=523	=523	=523	=523
2T	2IVb	4BB 4D 4G	4dd'
.	.	4r	(8ddL
.	.	.	8gg'J)
*	*	*clefG2	*
=524	=524	=524	=524
2T	2viio	4c# 4g	4ee'
.	.	4r	(8eeL
.	.	.	8gg'J)
=525	=525	=525	=525
2T	2IV	4B 4g	4dd'
.	.	4r	(8ddL
.	.	.	8gg'J)
=526	=526	=526	=526
2T	2viio	4c# 4g	4ee'
.	.	4r	(8eeL
.	.	.	8gg'J)
=527	=527	=527	=527
2T	2Vb/vi	4A# 4c# 4f#	4cc#'
.	.	4r	(8cc#L
.	.	.	8ff#'J)
*	*	*clefF4	*
=528	=528	=528	=528
2T	2vi	4BB 4F#	4dd'
.	.	4r	(8ddL
.	.	.	8ff#'J)
=529	=529	=529	=529
2P	2iib	4GG 4E	4b'
.	.	4r	(8bL
.	.	.	8ee'J)
=530	=530	=530	=530
2D	2V7	4A 4e 4g	4cc#'
.	.	4r	(8cc#L
.	.	.	8a'J)
=531	=531	=531	=531
2T	2I	4d 4f#	4dd'
.	.	4r	(8ff#L
.	.	.	8ee'J)
=532	=532	=532	=532
2T	2vi	4BB 4F#	4dd'
.	.	4r	(8ddL
.	.	.	8ff#'J)
=533	=533	=533	=533
2P	2iib	4GG 4E	4b'
.	.	4r	(8bL
.	.	.	8ee'J)
=534	=534	=534	=534
2D	2V7	4A 4e 4g	4cc#'
.	.	4r	(8cc#L
.	.	.	8a'J)
=535	=535	=535	=535
2D	2r	2r	2r
*-	*-	*-	*-
!!!COM: Beethoven
!!!OTL: 24 Variationen uber Venni Amore von V. Righini
!!!Variation: Variation 24 e
**function	**harm	**kern	**kern
*	*	*clefF4	*clefG2
*	*	*k[f#c#]	*k[f#c#]
*M2/4	*M2/4	*M2/4	*M2/4
*D:	*D:	*D:	*D:
=536	=536	=536	=536
2T	2I	2r	4r
.	.	.	(32r
.	.	.	32a
.	.	.	32b
.	.	.	32cc#
.	.	.	32dd
.	.	.	32ee
.	.	.	32ff#
.	.	.	32gg
=537	=537	=537	=537
4T	4I	8d 8f#'	16aa')
.	.	.	16a
.	.	8r	16b
.	.	.	16a
4T	4V	8A 8e'	16aa'
.	.	.	16a
.	.	8r	16b
.	.	.	16a
=538	=538	=538	=538
2T	2Ib	[4F# [4d	16aa'
.	.	.	16a
.	.	.	16b
.	.	.	16a
.	.	8.F#] 8.d]	16aa'
.	.	.	16a
.	.	.	16b
.	.	16A 16c#	16a
=539	=539	=539	=539
*	*	*^	*
2T	2IV	4G	4B	16ddd
.	.	.	.	16dd
.	.	.	.	16ee
.	.	.	.	16dd
.	.	4G	(8B	16ddd
.	.	.	.	16dd
.	.	.	8d)	16ee
.	.	.	.	16dd
*	*	*v	*v	*
=540	=540	=540	=540
2T	2Ib	4F# 4A	16ddd
.	.	.	16dd
.	.	.	16ee
.	.	.	16dd
.	.	8r	16ddd
.	.	.	16dd
.	.	16r	16ee
.	.	16E 16G	16dd
=541	=541	=541	=541
2T	2I	8D 8F#	16aa
.	.	.	16dd
.	.	8r	16ee
.	.	.	16dd
.	.	(4D 4F#	16aa
.	.	.	16dd
.	.	.	16ee
.	.	.	16dd
=542	=542	=542	=542
2P	2iib	8GG) 8E'	16gg
.	.	.	16b
.	.	8r	16cc#
.	.	.	16b
.	.	(4GG 4E	16gg
.	.	.	16b
.	.	.	16cc#
.	.	.	16b
=543	=543	=543	=543
2D	2V	8AA) 8C#'	16ee
.	.	.	16a
.	.	8r	16b
.	.	.	16a
.	.	(4AA 4C#	16ee
.	.	.	16a
.	.	.	16b
.	.	.	16a
=544	=544	=544	=544
2T	2I	8DD) 8D'	16ff#
.	.	.	16a
.	.	8r	16b
.	.	.	16a
.	.	4r	16ff#
.	.	.	16a
.	.	.	16b
.	.	.	16a
*-	*-	*-	*-
!!!COM: Beethoven
!!!OTL: 24 Variationen uber Venni Amore von V. Righini
!!!Variation: Variation 24 f
**function	**harm	**kern	**kern
*	*	*clefF4	*clefG2
*	*	*k[f#c#]	*k[f#c#]
*M2/4	*M2/4	*M2/4	*M2/4
*D:	*D:	*D:	*D:
=545	=545	=545	=545
2T	2Ib	8F# 8f#'	16aa
.	.	.	16dd
.	.	8r	16ee
.	.	.	16dd
.	.	(4F# 4f#	16aa
.	.	.	16dd
.	.	.	16ee
.	.	.	16dd
=546	=546	=546	=546
2T	2iib	8G) 8g'	16bb
.	.	.	16dd
.	.	8r	16ee
.	.	.	16dd
.	.	(4G 4g	16bb
.	.	.	16dd
.	.	.	16ee
.	.	.	16dd
=547	=547	=547	=547
2T	2V	8A) 8e'	16ccc#
.	.	.	16gg
.	.	8r	16aa
.	.	.	16gg
.	.	(4A 4e	16ccc#
.	.	.	16gg
.	.	.	16aa
.	.	.	16gg
=548	=548	=548	=548
2T	2I	8D) 8d'	16ddd
.	.	.	16ff#
.	.	8r	16gg
.	.	.	16ff#
.	.	4r	16ddd
.	.	.	16ff#
.	.	.	16gg
.	.	.	16ff#
=549	=549	=549	=549
2T	2V	8A 8e	16aa
.	.	.	16cc#
.	.	8r	16dd
.	.	.	16cc#
.	.	(4A 4e	16aa
.	.	.	16cc#
.	.	.	16dd
.	.	.	16cc#
=550	=550	=550	=550
2T	2I	8d) 8f#'	16aa
.	.	.	16a
.	.	8r	16b
.	.	.	16a
.	.	4r	16aa
.	.	.	16a
.	.	.	16b
.	.	.	16a
=551	=551	=551	=551
2T	2V	8AA 8E'	16aa
.	.	.	16a
.	.	8r	16b
.	.	.	16a
.	.	(4AA 4E	16aa
.	.	.	16a
.	.	.	16b
.	.	.	16a
=552	=552	=552	=552
2T	2I	8DD) 8D	8aa'
.	.	8r	(8a
.	.	4r	8b
.	.	.	8a)
=553	=553	=553	=553
4T	4I	8d 8f#'	8aa'
.	.	8r	(8a
4T	4V	8A 8e'	8b
.	.	.	8a)
=554	=554	=554	=554
2T	2I	8F# 8d'	8aa'
.	.	8r	(8a
.	.	4r	8b
.	.	.	8a)
=555	=555	=555	=555
4T	4I	8D 8F#'	8aa'
.	.	8r	(8a
4T	4V	8AA 8E'	8b
.	.	.	8a)
=556	=556	=556	=556
2T	2I	8FF# 8D'	(4aa'
.	.	8r	.
.	.	4r	4a'
=557	=557	=557	=557
2T	2I	2r	4b'
.	.	.	4a')
=558	=558	=558	=558
2T	2I	4d 4f#'	2r
.	.	4r	.
=559	=559	=559	=559
2T	2V	4A 4e'	2r
.	.	4r	.
=560	=560	=560	=560
2T	2I	4F# 4d'	2aa
.	.	4r	.
=561	=561	=561	=561
2T	2I	2r	2a
=562	=562	=562	=562
2T	2I	2r	2b
=563	=563	=563	=563
2T	2I	2r	2a
=564	=564	=564	=564
2T	2I	4D 4F#'	2r
.	.	4r	.
=565	=565	=565	=565
2T	2I	2r	2r
=566	=566	=566	=566
2T	2V	4AA 4E'	2r
.	.	4r	.
=567	=567	=567	=567
2T	2I	2r	2r
=568	=568	=568	=568
2T	2I	4FF# 4D'	[2aa
.	.	4r	.
=569	=569	=569	=569
2T	2I	2r	2aa]
=570	=570	=570	=570
2T	2I	2r	[2a
=571	=571	=571	=571
2T	2I	2r	2a]
=572	=572	=572	=572
2T	2I	2r	[2b
=573	=573	=573	=573
2T	2I	2r	2b]
=574	=574	=574	=574
2T	2I	2r	[2a
=575	=575	=575	=575
2T	2I	2r	2a]
=576	=576	=576	=576
2T	2I	[2DD [2AA	2r
=577	=577	=577	=577
2T	2I	2DD_ 2AA_	2r
=578	=578	=578	=578
2T	2I	2DD_ 2AA_	2r
=579	=579	=579	=579
2T	2I	2DD_ 2AA_	2r
=580	=580	=580	=580
2T	2I	2DD] 2AA]	[2ff# [2ddd
=581	=581	=581	=581
2T	2I	[2DD [2AA	2ff#_ 2ddd_
=582	=582	=582	=582
2T	2I	2DD_ 2AA_	2ff#_ 2ddd_
=583	=583	=583	=583
2T	2I	2DD] 2AA]	2ff#] 2ddd]
=584	=584	=584	=584
2T	2I	2DD; 2AA;	2ff#; 2ddd;
==	==	==	==
*-	*-	*-	*-
